gaomoqi/ArmYolo/src/RTDE_Python_Client_Library/robot_data.csv
timestamp target_q_0 target_q_1 target_q_2 target_q_3 target_q_4 target_q_5 target_qd_0 target_qd_1 target_qd_2 target_qd_3 target_qd_4 target_qd_5 target_qdd_0 target_qdd_1 target_qdd_2 target_qdd_3 target_qdd_4 target_qdd_5 target_current_0 target_current_1 target_current_2 target_current_3 target_current_4 target_current_5 target_moment_0 target_moment_1 target_moment_2 target_moment_3 target_moment_4 target_moment_5 actual_q_0 actual_q_1 actual_q_2 actual_q_3 actual_q_4 actual_q_5 actual_qd_0 actual_qd_1 actual_qd_2 actual_qd_3 actual_qd_4 actual_qd_5 actual_current_0 actual_current_1 actual_current_2 actual_current_3 actual_current_4 actual_current_5 joint_control_output_0 joint_control_output_1 joint_control_output_2 joint_control_output_3 joint_control_output_4 joint_control_output_5 actual_TCP_pose_0 actual_TCP_pose_1 actual_TCP_pose_2 actual_TCP_pose_3 actual_TCP_pose_4 actual_TCP_pose_5 actual_TCP_speed_0 actual_TCP_speed_1 actual_TCP_speed_2 actual_TCP_speed_3 actual_TCP_speed_4 actual_TCP_speed_5 actual_TCP_force_0 actual_TCP_force_1 actual_TCP_force_2 actual_TCP_force_3 actual_TCP_force_4 actual_TCP_force_5 target_TCP_pose_0 target_TCP_pose_1 target_TCP_pose_2 target_TCP_pose_3 target_TCP_pose_4 target_TCP_pose_5 target_TCP_speed_0 target_TCP_speed_1 target_TCP_speed_2 target_TCP_speed_3 target_TCP_speed_4 target_TCP_speed_5 actual_digital_input_bits joint_temperatures_0 joint_temperatures_1 joint_temperatures_2 joint_temperatures_3 joint_temperatures_4 joint_temperatures_5 actual_execution_time robot_mode joint_mode_0 joint_mode_1 joint_mode_2 joint_mode_3 joint_mode_4 joint_mode_5 safety_status actual_tool_accelerometer_0 actual_tool_accelerometer_1 actual_tool_accelerometer_2 speed_scaling target_speed_fraction actual_momentum actual_main_voltage actual_robot_voltage actual_robot_current actual_joint_voltage_0 actual_joint_voltage_1 actual_joint_voltage_2 actual_joint_voltage_3 actual_joint_voltage_4 actual_joint_voltage_5 actual_digital_output_bits runtime_state joint_position_deviation_ratio
242.54 -3.7105653921710413 -2.0582691631712855 -1.886815071105957 -0.5791891378215333 2.116410732269287 -2.2022135893451136 0.0 0.0 0.0 0.0 0.0 0.0 0.0 0.0 0.0 0.0 0.0 0.0 6.73467623449183e-18 3.8723260938254027 1.7820472107183003 0.3883693992840017 0.19062535565734345 0.0 6.809807902543021e-17 39.26438612487767 18.211654316215437 3.098128278203938 1.5183181803270933 0.0 -3.710552994404928 -2.0582691631712855 -1.8867921829223633 -0.5791891378215333 2.1164345741271973 -2.2022135893451136 0.0 0.0 -0.0 -0.0 -0.0 0.0 -0.26952892541885376 3.4492948055267334 1.858046293258667 0.0948285460472107 0.11532671749591827 -0.030483610928058624 6.73467623449183e-18 3.8723260938254027 1.7820472107183003 0.3883693992840017 0.19062535565734345 0.0 -0.5276658070339741 0.31776171567947087 0.03429737888240644 2.7167435701167943 0.15302911735557165 -0.6470769605544504 0.0 0.0 0.0 0.0 0.0 0.0 0.06752418650184804 -0.4099020298792834 0.15389148540142158 0.007275376352665694 -0.005713851261078609 -0.006118943627390993 -0.5276495644051131 0.3177672986909083 0.034284342533911605 2.716763839377261 0.15300122387374004 -0.6470387065951348 0.0 0.0 0.0 0.0 0.0 0.0 131072 26.5625 27.0625 27.125 30.5625 32.6875 33.6875 0.631944 7 253 253 253 253 253 253 1 4.041412353515625 -2.470816135406494 -8.33182144165039 0.0 1.0 0.0 47.74688720703125 47.77196502685547 0.5091454982757568 47.6995964050293 47.6279296875 47.68526077270508 47.5562629699707 47.64226531982422 47.51326370239258 0 1 0.000362396240234375
242.548 -3.7105653921710413 -2.0582691631712855 -1.886815071105957 -0.5791891378215333 2.116410732269287 -2.2022135893451136 0.0 0.0 0.0 0.0 0.0 0.0 0.0 0.0 0.0 0.0 0.0 0.0 -2.0804085053761065e-16 3.8722916911525567 1.7819204267066715 0.3883474757462069 0.19063588803013223 0.0 -2.1036174252698754e-15 39.264037290663396 18.210358645383195 3.097953388182928 1.5184020699703786 0.0 -3.710541550313131 -2.0582572422423304 -1.8868398666381836 -0.5791652959636231 2.1163992881774902 -2.2022135893451136 0.0 0.0 -0.0 -0.0 -0.0 0.0 -0.27817752957344055 3.4173765182495117 1.7968339920043945 0.11143829673528671 0.10105066001415253 -0.013529948890209198 -2.0804085053761065e-16 3.8722916911525567 1.7819204267066715 0.3883474757462069 0.19063588803013223 0.0 -0.5276510977847032 0.31775419452391945 0.03428310863534961 2.7167723746867165 0.1530367568776748 -0.6470382847601708 0.0 0.0 0.0 0.0 0.0 0.0 -0.047023522246059254 -0.2716821752897439 -0.028778417892630775 0.005065173013086229 -0.005397721553955465 -0.0021098338576997816 -0.5276495644051131 0.3177672986909083 0.034284342533911605 2.716763839377261 0.15300122387374004 -0.6470387065951348 0.0 0.0 0.0 0.0 0.0 0.0 131072 26.5625 27.0625 27.125 30.5625 32.6875 33.6875 0.629172 7 253 253 253 253 253 253 1 3.9264907836914062 -2.5474305152893066 -8.370129585266113 0.0 1.0 0.0 47.737037658691406 47.78718948364258 0.5113813281059265 47.65659713745117 47.61359786987305 47.6995964050293 47.51326370239258 47.6279296875 47.48460006713867 0 1 0.0002384185791015625
242.55599999999998 -3.7105653921710413 -2.0582691631712855 -1.886815071105957 -0.5791891378215333 2.116410732269287 -2.2022135893451136 0.0 0.0 0.0 0.0 0.0 0.0 0.0 0.0 0.0 0.0 0.0 0.0 -1.3122339647748108e-16 3.8724164495599966 1.7819052386569316 0.38834956235242807 0.1906208632001491 0.0 -1.3268731728397845e-15 39.265302308681854 18.210203430914163 3.0979700336080085 1.5182823982066667 0.0 -3.710517708455221 -2.0582572422423304 -1.8867921829223633 -0.5792015355876465 2.1163992881774902 -2.2021897474872034 0.0 0.0 -0.0 -0.0 -0.0 0.0 -0.27555564045906067 3.415177345275879 1.792250394821167 0.11020393669605255 0.10094552487134933 -0.017725203186273575 -1.3122339647748108e-16 3.8724164495599966 1.7819052386569316 0.38834956235242807 0.1906208632001491 0.0 -0.5276721736742145 0.31775019735441795 0.034297746896087916 2.716767318266481 0.15304107614754367 -0.6470385352686874 0.0 0.0 0.0 0.0 0.0 0.0 -0.008381369456724911 -0.20682382538071928 0.040351890177709564 0.0006266461868042613 -0.006768949489448326 -0.0026852418383319435 -0.5276495644051131 0.3177672986909083 0.034284342533911605 2.716763839377261 0.15300122387374004 -0.6470387065951348 0.0 0.0 0.0 0.0 0.0 0.0 131072 26.5625 27.0625 27.125 30.5625 32.6875 33.6875 0.636181 7 253 253 253 253 253 253 1 4.003105163574219 -2.5282769203186035 -8.216899871826172 0.0 1.0 0.0 47.74061965942383 47.780025482177734 0.49571460485458374 47.65659713745117 47.6279296875 47.68526077270508 47.51326370239258 47.599266052246094 47.48460006713867 0 1 0.00035762786865234375
242.564 -3.7105653921710413 -2.0582691631712855 -1.886815071105957 -0.5791891378215333 2.116410732269287 -2.2022135893451136 0.0 0.0 0.0 0.0 0.0 0.0 0.0 0.0 0.0 0.0 0.0 0.0 -7.234416678970611e-17 3.872361498157978 1.781943364314596 0.38835157049525243 0.19062793443103204 0.0 -7.315123423221315e-16 39.264745115662805 18.210593056561446 3.0979860531092416 1.5183387200866696 0.0 -3.7105653921710413 -2.058209081689352 -1.8868284225463867 -0.5792139333537598 2.116410732269287 -2.2022011915790003 0.0 0.0 -0.0 -0.0 -0.0 0.0 -0.293701708316803 3.405062675476074 1.8379037380218506 0.10250017046928406 0.10657742619514465 -0.008996671065688133 -7.234416678970611e-17 3.872361498157978 1.781943364314596 0.38835157049525243 0.19062793443103204 0.0 -0.5276457804438937 0.31776481968801157 0.03431219879441744 2.716768685277561 0.15299330460850358 -0.6470615497623352 0.0 0.0 0.0 0.0 0.0 0.0 -0.14578551392249645 -0.17804756075611824 -0.24694932140891984 8.109316354704501e-05 -0.0025903835405179628 -0.002816102006976306 -0.5276495644051131 0.3177672986909083 0.034284342533911605 2.716763839377261 0.15300122387374004 -0.6470387065951348 0.0 0.0 0.0 0.0 0.0 0.0 131072 26.5625 27.0625 27.125 30.5625 32.6875 33.6875 0.63414 7 253 253 253 253 253 253 1 3.907337188720703 -2.470816135406494 -8.370129585266113 0.0 1.0 0.0 47.749576568603516 47.79435729980469 0.5606174468994141 47.64226531982422 47.61359786987305 47.68526077270508 47.61359786987305 47.6279296875 47.44160079956055 0 1 0.0001239776611328125
242.572 -3.7105653921710413 -2.0582691631712855 -1.886815071105957 -0.5791891378215333 2.116410732269287 -2.2022135893451136 0.0 0.0 0.0 0.0 0.0 0.0 0.0 0.0 0.0 0.0 0.0 0.0 -6.730074154693177e-17 3.872414857551672 1.7819963071970477 0.3883519556780052 0.19062051714633907 0.0 -6.805154482201818e-16 39.26528616612876 18.2111341070274 3.0979891258167744 1.5182796419112654 0.0 -3.7105777899371546 -2.0583049259581507 -1.8868398666381836 -0.5791891378215333 2.116386890411377 -2.2022011915790003 0.0 0.0 -0.0 -0.0 -0.0 0.0 -0.29530543088912964 3.4489903450012207 1.8709311485290527 0.10536367446184158 0.11115851253271103 -0.010552430525422096 -6.730074154693177e-17 3.872414857551672 1.7819963071970477 0.3883519556780052 0.19062051714633907 0.0 -0.5276286430958623 0.31776990844249836 0.03424849459049406 2.716772517606616 0.15294116000615285 -0.6469516282039987 0.0 0.0 0.0 0.0 0.0 0.0 -0.04161163416029016 -0.33080160412139353 -0.03837772288020343 0.00254806752816008 -0.00590106738100658 -0.002232284875149856 -0.5276495644051131 0.3177672986909083 0.034284342533911605 2.716763839377261 0.15300122387374004 -0.6470387065951348 0.0 0.0 0.0 0.0 0.0 0.0 131072 26.5625 27.0625 27.125 30.5625 32.6875 33.6875 0.644725 7 253 253 253 253 253 253 1 4.022258758544922 -2.4899697303771973 -8.236053466796875 0.0 1.0 0.0 47.72002029418945 47.77375411987305 0.5382378697395325 47.61359786987305 47.64226531982422 47.6279296875 47.51326370239258 47.6279296875 47.48460006713867 0 1 0.0002288818359375
242.57999999999998 -3.7105653921710413 -2.0582691631712855 -1.886815071105957 -0.5791891378215333 2.116410732269287 -2.2022135893451136 0.0 0.0 0.0 0.0 0.0 0.0 0.0 0.0 0.0 0.0 0.0 0.0 4.352032164946285e-17 3.8724109021649147 1.781853410941928 0.38833281200134934 0.19063447442212444 0.0 4.400583190204223e-16 39.26524605952896 18.20967377691624 3.0978364115037884 1.5183908106773498 0.0 -3.710552994404928 -2.0582453213133753 -1.8868284225463867 -0.5792015355876465 2.116410732269287 -2.2022011915790003 0.0 0.0 -0.0 -0.0 -0.0 0.0 -0.2662274241447449 3.455432891845703 1.814337134361267 0.09746003150939941 0.11209338903427124 -0.011090880259871483 4.352032164946285e-17 3.8724109021649147 1.781853410941928 0.38833281200134934 0.19063447442212444 0.0 -0.5276481078026797 0.31775728081404303 0.03429167384710702 2.7167590638939063 0.15300031757804075 -0.647029360551785 0.0 0.0 0.0 0.0 0.0 0.0 -0.0081732383943912 -0.3011808433264195 -0.18948045933250776 -0.0005726744241299883 -0.003111034810746053 -0.0037063293485698145 -0.5276495644051131 0.3177672986909083 0.034284342533911605 2.716763839377261 0.15300122387374004 -0.6470387065951348 0.0 0.0 0.0 0.0 0.0 0.0 131072 26.5625 27.0625 27.125 30.5625 32.6875 33.6875 0.6315 7 253 253 253 253 253 253 1 4.041412353515625 -2.5474305152893066 -8.350975036621094 0.0 1.0 0.0 47.723602294921875 47.756744384765625 0.5203352570533752 47.64226531982422 47.599266052246094 47.670928955078125 47.5275993347168 47.599266052246094 47.44160079956055 0 1 0.000476837158203125
242.588 -3.7105653921710413 -2.0582691631712855 -1.886815071105957 -0.5791891378215333 2.116410732269287 -2.2022135893451136 0.0 0.0 0.0 0.0 0.0 0.0 0.0 0.0 0.0 0.0 0.0 0.0 -4.1880133779709786e-17 3.8723878284625477 1.7818305173476139 0.38832596467189506 0.19064282572360922 0.0 -4.2347346188965864e-16 39.26501209814836 18.209439815535646 3.0977817884952517 1.518457328233894 0.0 -3.7105653921710413 -2.0582572422423304 -1.886815071105957 -0.5791891378215333 2.116363048553467 -2.2022255102740687 0.0 0.0 -0.0 -0.0 -0.0 0.0 -0.2315056324005127 3.420647144317627 1.8278290033340454 0.09679540991783142 0.10943381488323212 -0.02619575709104538 -4.1880133779709786e-17 3.8723878284625477 1.7818305173476139 0.38832596467189506 0.19064282572360922 0.0 -0.5276456799095913 0.3177786203490821 0.03428467557634801 2.7168153408333686 0.15301841747137876 -0.6470279626572789 0.0 0.0 0.0 0.0 0.0 0.0 -0.08707812439072485 -0.17044688034893674 -0.13260629383581793 -0.0004812331718382864 -0.0039127300059516555 0.00022481180028938457 -0.5276495644051131 0.3177672986909083 0.034284342533911605 2.716763839377261 0.15300122387374004 -0.6470387065951348 0.0 0.0 0.0 0.0 0.0 0.0 131072 26.5625 27.0625 27.125 30.5625 32.6875 33.6875 0.627648 7 253 253 253 253 253 253 1 3.9647979736328125 -2.4133553504943848 -8.40843677520752 0.0 1.0 0.0 47.72897720336914 47.78450393676758 0.5583816170692444 47.670928955078125 47.61359786987305 47.68526077270508 47.48460006713867 47.6279296875 47.4559326171875 0 1 0.000476837158203125
242.59599999999998 -3.7105653921710413 -2.0582691631712855 -1.886815071105957 -0.5791891378215333 2.116410732269287 -2.2022135893451136 0.0 0.0 0.0 0.0 0.0 0.0 0.0 0.0 0.0 0.0 0.0 0.0 -6.942492936475855e-17 3.8723110895487576 1.781939673683421 0.38834965250544623 0.1906170220756437 0.0 -7.019942995927807e-16 39.26423398538904 18.210555340108836 3.097970752783143 1.518251803907449 0.0 -3.710541550313131 -2.0582930050291957 -1.886815071105957 -0.5791776937297364 2.116410732269287 -2.20217734972109 0.0 0.0 -0.0 -0.0 -0.0 0.0 -0.33418285846710205 3.464787483215332 1.8226501941680908 0.11654979735612869 0.1068660169839859 -0.011317256838083267 -6.942492936475855e-17 3.8723110895487576 1.781939673683421 0.38834965250544623 0.1906170220756437 0.0 -0.527656691005379 0.3177544571613671 0.0342713128662403 2.7167511739388805 0.15297872700374415 -0.6470067424832322 0.0 0.0 0.0 0.0 0.0 0.0 -0.08944385537158535 -0.2998024292734516 -0.25164882159178537 0.0034594757485820527 -0.005426113230216826 -0.0016581932736433169 -0.5276495644051131 0.3177672986909083 0.034284342533911605 2.716763839377261 0.15300122387374004 -0.6470387065951348 0.0 0.0 0.0 0.0 0.0 0.0 131072 26.5625 27.0625 27.125 30.5625 32.6875 33.6875 0.627576 7 253 253 253 253 253 253 1 4.003105163574219 -2.470816135406494 -8.33182144165039 0.0 1.0 0.0 47.74778747558594 47.77286148071289 0.44871434569358826 47.65659713745117 47.599266052246094 47.670928955078125 47.498931884765625 47.570594787597656 47.44160079956055 0 1 0.0002384185791015625
242.60399999999998 -3.7105653921710413 -2.0582691631712855 -1.886815071105957 -0.5791891378215333 2.116410732269287 -2.2022135893451136 0.0 0.0 0.0 0.0 0.0 0.0 0.0 0.0 0.0 0.0 0.0 0.0 1.4604541783878996e-16 3.8723382286309174 1.78192027642415 0.3883482199000307 0.19062841892539362 0.0 1.476746922792248e-15 39.2645091686704 18.21035710956904 3.0979593245002826 1.5183425790517842 0.0 -3.7105653921710413 -2.0583049259581507 -1.8868284225463867 -0.5792015355876465 2.1164469718933105 -2.2022011915790003 0.0 0.0 -0.0 -0.0 -0.0 0.0 -0.24102410674095154 3.3861348628997803 1.786673903465271 0.1017877608537674 0.09765084832906723 -0.024368563666939735 1.4604541783878996e-16 3.8723382286309174 1.78192027642415 0.3883482199000307 0.19062841892539362 0.0 -0.5276416535717117 0.3177517487239727 0.034260302891206074 2.7167098313688336 0.15296250576278825 -0.6469828319904767 0.0 0.0 0.0 0.0 0.0 0.0 0.02579929263996686 -0.2905665401044804 -0.14269599745347922 0.0018620686933113239 -0.004711058412775583 -0.002502975598928424 -0.5276495644051131 0.3177672986909083 0.034284342533911605 2.716763839377261 0.15300122387374004 -0.6470387065951348 0.0 0.0 0.0 0.0 0.0 0.0 131072 26.5625 27.0625 27.125 30.5625 32.6875 33.6875 0.62754 7 253 253 253 253 253 253 1 3.907337188720703 -2.5282769203186035 -8.35097599029541 0.0 1.0 0.0 47.75047302246094 47.81316375732422 0.5874739289283752 47.65659713745117 47.64226531982422 47.670928955078125 47.5275993347168 47.65659713745117 47.5275993347168 0 1 0.0001239776611328125
242.612 -3.7105653921710413 -2.0582691631712855 -1.886815071105957 -0.5791891378215333 2.116410732269287 -2.2022135893451136 0.0 0.0 0.0 0.0 0.0 0.0 0.0 0.0 0.0 0.0 0.0 0.0 -2.9780350913351236e-16 3.8724847367473827 1.7818803458596746 0.38834202673486995 0.19063314237084594 0.0 -3.0112578827710462e-15 39.26599472311905 18.209949038653466 3.097909919938153 1.5183802009782028 0.0 -3.7105777899371546 -2.058316846887106 -1.8868036270141602 -0.5792015355876465 2.1164231300354004 -2.2021897474872034 0.0 0.0 -0.0 -0.0 -0.0 0.0 -0.2821928560733795 3.398033380508423 1.7984113693237305 0.11520157754421234 0.1014309823513031 -0.02965354360640049 -2.9780350913351236e-16 3.8724847367473827 1.7818803458596746 0.38834202673486995 0.19063314237084594 0.0 -0.5276443639970796 0.31776945179710864 0.03425978679660624 2.7167389174189234 0.1529333245746927 -0.64698437132031 0.0 0.0 0.0 0.0 0.0 0.0 -0.07417093255197674 -0.13293446577583712 -0.17853408339025081 -0.002964082450370249 -0.00763311684789561 -0.0001355022329436249 -0.5276495644051131 0.3177672986909083 0.034284342533911605 2.716763839377261 0.15300122387374004 -0.6470387065951348 0.0 0.0 0.0 0.0 0.0 0.0 131072 26.5625 27.0625 27.125 30.5625 32.6875 33.6875 0.635185 7 253 253 253 253 253 253 1 3.9839515686035156 -2.5091233253479004 -8.370128631591797 0.0 1.0 0.0 47.73524856567383 47.77017593383789 0.5292839407920837 47.65659713745117 47.61359786987305 47.6279296875 47.48460006713867 47.61359786987305 47.4559326171875 0 1 0.0005960464477539062
242.61999999999998 -3.7105653921710413 -2.0582691631712855 -1.886815071105957 -0.5791891378215333 2.116410732269287 -2.2022135893451136 0.0 0.0 0.0 0.0 0.0 0.0 0.0 0.0 0.0 0.0 0.0 0.0 -4.4785813424756924e-17 3.872337875245614 1.7819199257972913 0.38834777071944143 0.1906323118711827 0.0 -4.528544143217297e-16 39.264505585434726 18.210353526333364 3.09795574126461 1.518373586104053 0.0 -3.710541550313131 -2.0582810841002406 -1.8868398666381836 -0.5792015355876465 2.116410732269287 -2.2021897474872034 0.0 0.0 -0.0 -0.0 -0.0 0.0 -0.3185708224773407 3.4718174934387207 1.7914708852767944 0.10768632590770721 0.10636374354362488 -0.0255298875272274 -4.4785813424756924e-17 3.872337875245614 1.7819199257972913 0.38834777071944143 0.1906323118711827 0.0 -0.527643017816796 0.31774568244182344 0.034264889853361985 2.7167421059115546 0.15298105056875538 -0.6469660823988974 0.0 0.0 0.0 0.0 0.0 0.0 0.04046320693370166 -0.18355079397200963 -0.14582578705781926 -0.0018249590139392822 -0.0014825318781251972 -0.0029978482517304303 -0.5276495644051131 0.3177672986909083 0.034284342533911605 2.716763839377261 0.15300122387374004 -0.6470387065951348 0.0 0.0 0.0 0.0 0.0 0.0 131072 26.5625 27.0625 27.125 30.5625 32.6875 33.6875 0.626292 7 253 253 253 253 253 253 1 4.041412353515625 -2.585737705230713 -8.350975036621094 0.0 1.0 0.0 47.70838165283203 47.76032257080078 0.5136224627494812 47.65659713745117 47.599266052246094 47.670928955078125 47.51326370239258 47.5562629699707 47.4559326171875 0 1 0.0001239776611328125
242.628 -3.7105653921710413 -2.0582691631712855 -1.886815071105957 -0.5791891378215333 2.116410732269287 -2.2022135893451136 0.0 0.0 0.0 0.0 0.0 0.0 0.0 0.0 0.0 0.0 0.0 0.0 6.016918423592102e-17 3.872333521308568 1.7819156058460839 0.38834223652209293 0.19062928400937568 0.0 6.084042826006159e-16 39.264461437637976 18.210309378536618 3.0979115934678623 1.5183494693877153 0.0 -3.7105777899371546 -2.0582453213133753 -1.8868284225463867 -0.5791891378215333 2.1163992881774902 -2.2022011915790003 0.0 0.0 -0.0 -0.0 -0.0 0.0 -0.2953726649284363 3.422473907470703 1.8524541854858398 0.10607415437698364 0.11434993147850037 -0.029717184603214264 6.016918423592102e-17 3.872333521308568 1.7819156058460839 0.38834223652209293 0.19062928400937568 0.0 -0.5276412936400856 0.31777437466610287 0.03429177877922568 2.7167799450531214 0.15297085808522085 -0.6470444816915155 0.0 0.0 0.0 0.0 0.0 0.0 -0.1646948759074391 -0.3419814220806164 -0.2639940052979074 0.006493315178624937 -0.003910974916018603 -0.0038112826060550907 -0.5276495644051131 0.3177672986909083 0.034284342533911605 2.716763839377261 0.15300122387374004 -0.6470387065951348 0.0 0.0 0.0 0.0 0.0 0.0 131072 26.5625 27.0625 27.125 30.5625 32.6875 33.6875 0.616525 7 253 253 253 253 253 253 1 3.9647979736328125 -2.5474305152893066 -8.35097599029541 0.0 1.0 0.0 47.75763702392578 47.80509948730469 0.5897097587585449 47.65659713745117 47.64226531982422 47.68526077270508 47.584930419921875 47.64226531982422 47.48460006713867 0 1 0.0002384185791015625
242.636 -3.7105653921710413 -2.0582691631712855 -1.886815071105957 -0.5791891378215333 2.116410732269287 -2.2022135893451136 0.0 0.0 0.0 0.0 0.0 0.0 0.0 0.0 0.0 0.0 0.0 0.0 -2.0276335243196632e-16 3.872260489286791 1.7819821182737359 0.38835719455302947 0.19062712109624613 0.0 -2.0502536895027256e-15 39.26372091180594 18.21098910314371 3.0980309177470566 1.5183322419296172 0.0 -3.7105653921710413 -2.0582453213133753 -1.8868036270141602 -0.5791891378215333 2.1163992881774902 -2.2022135893451136 0.0 0.0 -0.0 -0.0 -0.0 0.0 -0.27433353662490845 3.412381649017334 1.8546016216278076 0.11175769567489624 0.09948442876338959 -0.013487085700035095 -2.0276335243196632e-16 3.872260489286791 1.7819821182737359 0.38835719455302947 0.19062712109624613 0.0 -0.5276557592452069 0.31777456107536856 0.0343021063319732 2.716784906292137 0.15301451403597172 -0.6470743191553076 0.0 0.0 0.0 0.0 0.0 0.0 -0.1682154510221503 -0.30596493459655544 -0.19527123474975616 0.003030442901599677 -0.007087778029923126 -0.002859471628927666 -0.5276495644051131 0.3177672986909083 0.034284342533911605 2.716763839377261 0.15300122387374004 -0.6470387065951348 0.0 0.0 0.0 0.0 0.0 0.0 131072 26.5625 27.0625 27.125 30.5625 32.6875 33.6875 0.6219 7 253 253 253 253 253 253 1 3.9839515686035156 -2.432508945465088 -8.293514251708984 0.0 1.0 0.0 47.73793411254883 47.786293029785156 0.43752455711364746 47.65659713745117 47.6279296875 47.68526077270508 47.5275993347168 47.64226531982422 47.48460006713867 0 1 0.0002384185791015625
242.64399999999998 -3.7105653921710413 -2.0582691631712855 -1.886815071105957 -0.5791891378215333 2.116410732269287 -2.2022135893451136 0.0 0.0 0.0 0.0 0.0 0.0 0.0 0.0 0.0 0.0 0.0 0.0 2.099022630707574e-16 3.8723114397346743 1.7819863459285832 0.38835980057701996 0.19063410554113758 0.0 2.1224392087331927e-15 39.26423753618376 18.21103230771662 3.098051706708889 1.518387872565015 0.0 -3.7105653921710413 -2.0582691631712855 -1.886815071105957 -0.5791776937297364 2.1164231300354004 -2.2021897474872034 0.0 0.0 -0.0 -0.0 -0.0 0.0 -0.30345025658607483 3.398019790649414 1.821225881576538 0.11064723134040833 0.11192084848880768 -0.03364863991737366 2.099022630707574e-16 3.8723114397346743 1.7819863459285832 0.38835980057701996 0.19063410554113758 0.0 -0.5276530387729321 0.31776594303954053 0.034287813350628554 2.7167525686848233 0.15297417980263672 -0.6470531042169722 0.0 0.0 0.0 0.0 0.0 0.0 0.003924076520223266 -0.24744348815765568 -0.1200628019749512 0.002428391096339672 -0.0001474574293360018 -0.005218112615499801 -0.5276495644051131 0.3177672986909083 0.034284342533911605 2.716763839377261 0.15300122387374004 -0.6470387065951348 0.0 0.0 0.0 0.0 0.0 0.0 131072 26.5625 27.0625 27.125 30.5625 32.6875 33.6875 0.619608 7 253 253 253 253 253 253 1 4.003105163574219 -2.604891300201416 -8.35097599029541 0.0 1.0 0.0 47.75315856933594 47.80957794189453 0.5919508934020996 47.65659713745117 47.6279296875 47.670928955078125 47.51326370239258 47.64226531982422 47.5275993347168 0 1 0.0001239776611328125
242.652 -3.7105653921710413 -2.0582691631712855 -1.886815071105957 -0.5791891378215333 2.116410732269287 -2.2022135893451136 0.0 0.0 0.0 0.0 0.0 0.0 0.0 0.0 0.0 0.0 0.0 0.0 1.3364534613242084e-16 3.8725116798765153 1.7818607556408623 0.3883403477192001 0.1906221953454562 0.0 1.3513628607260418e-15 39.26626791948735 18.20974883616116 3.097896525973706 1.518293008654745 0.0 -3.710541550313131 -2.0582691631712855 -1.8868036270141602 -0.5791776937297364 2.1163744926452637 -2.2021897474872034 0.0 0.0 -0.0 -0.0 -0.0 0.0 -0.2519950270652771 3.4315428733825684 1.8017404079437256 0.11754962801933289 0.09613220393657684 -0.0324677899479866 1.3364534613242084e-16 3.8725116798765153 1.7818607556408623 0.3883403477192001 0.1906221953454562 0.0 -0.5276601961683492 0.31776718149061756 0.034285433255879044 2.7167978848045418 0.15300693347214372 -0.6470310747689 0.0 0.0 0.0 0.0 0.0 0.0 -0.04262982362033542 -0.2768671246661572 -0.1744531271467935 0.0038161681586186243 -0.005993902952693966 6.695492818279688e-05 -0.5276495644051131 0.3177672986909083 0.034284342533911605 2.716763839377261 0.15300122387374004 -0.6470387065951348 0.0 0.0 0.0 0.0 0.0 0.0 131072 26.5625 27.0625 27.125 30.5625 32.6875 33.6875 0.6219 7 253 253 253 253 253 253 1 4.003105163574219 -2.470816135406494 -8.40843677520752 0.0 1.0 0.0 47.734352111816406 47.76659393310547 0.48452481627464294 47.64226531982422 47.64226531982422 47.670928955078125 47.48460006713867 47.6279296875 47.47026824951172 0 1 0.0007152557373046875
242.66 -3.7105653921710413 -2.0582691631712855 -1.886815071105957 -0.5791891378215333 2.116410732269287 -2.2022135893451136 0.0 0.0 0.0 0.0 0.0 0.0 0.0 0.0 0.0 0.0 0.0 0.0 -7.90457931338542e-17 3.872261168981303 1.781982792662708 0.3883580584983574 0.19061963463065265 0.0 -7.992762354170066e-16 39.263727803732685 18.21099599507046 3.0980378096738055 1.5182726127329775 0.0 -3.710552994404928 -2.0582810841002406 -1.8868398666381836 -0.5791538518718262 2.116410732269287 -2.2022255102740687 0.0 0.0 -0.0 -0.0 -0.0 0.0 -0.275282621383667 3.4268078804016113 1.8204071521759033 0.10007669776678085 0.1018139123916626 -0.020234327763319016 -7.90457931338542e-17 3.872261168981303 1.781982792662708 0.3883580584983574 0.19061963463065265 0.0 -0.5276482535660503 0.317757450864029 0.03427176069990007 2.7167616102882826 0.15303349026656193 -0.6470368424238178 0.0 0.0 0.0 0.0 0.0 0.0 -0.1248848026165801 -0.2889877170405732 -0.10119486720291151 0.0029547487530948062 -0.006995226055824847 -0.0021518111775543315 -0.5276495644051131 0.3177672986909083 0.034284342533911605 2.716763839377261 0.15300122387374004 -0.6470387065951348 0.0 0.0 0.0 0.0 0.0 0.0 131072 26.5625 27.0625 27.125 30.5625 32.6875 33.6875 0.61992 7 253 253 253 253 253 253 1 3.9264907836914062 -2.470816135406494 -8.370129585266113 0.0 1.0 0.0 47.72002029418945 47.76301193237305 0.5471917986869812 47.65659713745117 47.61359786987305 47.670928955078125 47.498931884765625 47.64226531982422 47.48460006713867 0 1 0.0002384185791015625
242.66799999999998 -3.7105653921710413 -2.0582691631712855 -1.886815071105957 -0.5791891378215333 2.116410732269287 -2.2022135893451136 0.0 0.0 0.0 0.0 0.0 0.0 0.0 0.0 0.0 0.0 0.0 0.0 -6.19766426427006e-17 3.8723588853227624 1.7819407718745766 0.3883482493756394 0.1906322426583696 0.0 -6.266805057083688e-16 39.26471862218878 18.21056656308743 3.0979595596352256 1.518373034828636 0.0 -3.7105653921710413 -2.0582453213133753 -1.8868036270141602 -0.5791776937297364 2.116410732269287 -2.2022135893451136 0.0 0.0 -0.0 -0.0 -0.0 0.0 -0.3017086386680603 3.370126247406006 1.7652626037597656 0.09262369573116302 0.09770119190216064 -0.023947395384311676 -6.19766426427006e-17 3.8723588853227624 1.7819407718745766 0.3883482493756394 0.1906322426583696 0.0 -0.5276591300751654 0.31777341542348947 0.03430543706460851 2.7167768067534386 0.15302000609138422 -0.6470949163532096 0.0 0.0 0.0 0.0 0.0 0.0 -0.03944614892561829 -0.21681109260072287 -0.0017197590886181002 0.0013853248161537694 -0.007679788884190894 -0.0012750106370399857 -0.5276495644051131 0.3177672986909083 0.034284342533911605 2.716763839377261 0.15300122387374004 -0.6470387065951348 0.0 0.0 0.0 0.0 0.0 0.0 131072 26.5625 27.0625 27.125 30.5625 32.6875 33.6875 0.633565 7 253 253 253 253 253 253 1 3.907337188720703 -2.5474305152893066 -8.33182144165039 0.0 1.0 0.0 47.742408752441406 47.774654388427734 0.4890017807483673 47.65659713745117 47.61359786987305 47.68526077270508 47.48460006713867 47.599266052246094 47.48460006713867 0 1 0.0001239776611328125
242.676 -3.7105653921710413 -2.0582691631712855 -1.886815071105957 -0.5791891378215333 2.116410732269287 -2.2022135893451136 0.0 0.0 0.0 0.0 0.0 0.0 0.0 0.0 0.0 0.0 0.0 0.0 1.769628765028727e-16 3.8724525334228654 1.781941040857407 0.3883504672960902 0.19063545542943422 0.0 1.789370643675698e-15 39.2656681897286 18.210569311960917 3.0979772525896143 1.5183986243348158 0.0 -3.7105653921710413 -2.0582691631712855 -1.8868036270141602 -0.5791891378215333 2.1163992881774902 -2.2022011915790003 0.0 0.0 -0.0 -0.0 -0.0 0.0 -0.2782244086265564 3.438333511352539 1.8036787509918213 0.09097428619861603 0.10199624300003052 -0.014894716441631317 1.769628765028727e-16 3.8724525334228654 1.781941040857407 0.3883504672960902 0.19063545542943422 0.0 -0.527653180919861 0.31777292476799635 0.03428742742528329 2.7167771459773014 0.15298792468950664 -0.6470421267051417 0.0 0.0 0.0 0.0 0.0 0.0 -0.11280373449899005 -0.2175767557541006 -0.10828997141654394 -0.002299482134115798 -0.006446130310773516 -0.002697318291231621 -0.5276495644051131 0.3177672986909083 0.034284342533911605 2.716763839377261 0.15300122387374004 -0.6470387065951348 0.0 0.0 0.0 0.0 0.0 0.0 131072 26.5625 27.0625 27.125 30.5625 32.6875 33.6875 0.646392 7 253 253 253 253 253 253 1 4.022258758544922 -2.432508945465088 -8.350975036621094 0.0 1.0 0.0 47.730770111083984 47.77913284301758 0.5091454982757568 47.6279296875 47.599266052246094 47.68526077270508 47.5275993347168 47.570594787597656 47.48460006713867 0 1 0.00035762786865234375
242.684 -3.7105653921710413 -2.0582691631712855 -1.886815071105957 -0.5791891378215333 2.116410732269287 -2.2022135893451136 0.0 0.0 0.0 0.0 0.0 0.0 0.0 0.0 0.0 0.0 0.0 0.0 -1.5207997248543199e-16 3.8722226605861088 1.782085414912794 0.3883696385832684 0.19062532103638655 0.0 -1.5377656807699004e-15 39.26333733855457 18.212044744470855 3.0981301871592426 1.5183179045734922 0.0 -3.7105653921710413 -2.0582810841002406 -1.8868036270141602 -0.5791891378215333 2.116410732269287 -2.2022135893451136 0.0 0.0 -0.0 -0.0 -0.0 0.0 -0.30301961302757263 3.4520156383514404 1.8069515228271484 0.10079419612884521 0.10495172441005707 -0.021266227588057518 -1.5207997248543199e-16 3.8722226605861088 1.782085414912794 0.3883696385832684 0.19062532103638655 0.0 -0.5276531333337711 0.31776958574520764 0.03428176957186799 2.7167637041112855 0.15300101240930766 -0.6470381413121978 0.0 0.0 0.0 0.0 0.0 0.0 -0.03973771007823794 -0.3327280755526093 0.09398431333033885 0.0068756273734222745 -0.007995893925909008 -0.001779695129990524 -0.5276495644051131 0.3177672986909083 0.034284342533911605 2.716763839377261 0.15300122387374004 -0.6470387065951348 0.0 0.0 0.0 0.0 0.0 0.0 131072 26.5625 27.0625 27.125 30.5625 32.6875 33.6875 0.620041 7 253 253 253 253 253 253 1 3.9839515686035156 -2.5091233253479004 -8.293514251708984 0.0 1.0 0.0 47.745994567871094 47.785400390625 0.5650944113731384 47.6995964050293 47.64226531982422 47.6995964050293 47.54193115234375 47.6279296875 47.48460006713867 0 1 0.0006008148193359375
242.69199999999998 -3.7105653921710413 -2.0582691631712855 -1.886815071105957 -0.5791891378215333 2.116410732269287 -2.2022135893451136 0.0 0.0 0.0 0.0 0.0 0.0 0.0 0.0 0.0 0.0 0.0 0.0 4.335444900386913e-17 3.8723669146254185 1.7819024142951463 0.3883487541864712 0.1906248081085077 0.0 4.383810879057404e-16 39.26480003724323 18.21017456731269 3.0979635866484663 1.5183138191373187 0.0 -3.7105777899371546 -2.0582810841002406 -1.8868284225463867 -0.5791776937297364 2.1164345741271973 -2.2022135893451136 0.0 0.0 -0.0 -0.0 -0.0 0.0 -0.2591274380683899 3.4291927814483643 1.8222354650497437 0.10849440097808838 0.11766661703586578 -0.02913612686097622 4.335444900386913e-17 3.8723669146254185 1.7819024142951463 0.3883487541864712 0.1906248081085077 0.0 -0.5276433836778571 0.31776552282215575 0.03427659487684892 2.7167395604633753 0.15298082925256284 -0.6470398218842355 0.0 0.0 0.0 0.0 0.0 0.0 -0.2109636942324344 -0.2601271455630002 0.011334974677759874 0.005655931350348514 -0.009408090113741144 0.0020114461636761326 -0.5276495644051131 0.3177672986909083 0.034284342533911605 2.716763839377261 0.15300122387374004 -0.6470387065951348 0.0 0.0 0.0 0.0 0.0 0.0 131072 26.5625 27.0625 27.125 30.5625 32.6875 33.6875 0.61794 7 253 253 253 253 253 253 1 3.9839515686035156 -2.5474305152893066 -8.274360656738281 0.0 1.0 0.0 47.72002029418945 47.75226593017578 0.5516634583473206 47.65659713745117 47.599266052246094 47.670928955078125 47.51326370239258 47.61359786987305 47.48460006713867 0 1 0.0002384185791015625
242.7 -3.7105653921710413 -2.0582691631712855 -1.886815071105957 -0.5791891378215333 2.116410732269287 -2.2022135893451136 0.0 0.0 0.0 0.0 0.0 0.0 0.0 0.0 0.0 0.0 0.0 0.0 6.016918423592102e-17 3.872333521308568 1.7819156058460839 0.38834223652209293 0.19062928400937568 0.0 6.084042826006159e-16 39.264461437637976 18.210309378536618 3.0979115934678623 1.5183494693877153 0.0 -3.7105653921710413 -2.0582810841002406 -1.886815071105957 -0.5792015355876465 2.116410732269287 -2.2022374312030237 0.0 0.0 -0.0 -0.0 -0.0 0.0 -0.26941314339637756 3.401394844055176 1.7757083177566528 0.1109870970249176 0.09089892357587814 -0.02536463923752308 6.016918423592102e-17 3.872333521308568 1.7819156058460839 0.38834223652209293 0.19062928400937568 0.0 -0.5276459683855859 0.3177649906126297 0.03427521674058362 2.716759299593645 0.15302409556830313 -0.647016226087328 0.0 0.0 0.0 0.0 0.0 0.0 0.013239312434367819 -0.21972619803527949 0.04243427237828347 0.0025178988760955956 -0.005424099967429262 -0.0010600260133025092 -0.5276495644051131 0.3177672986909083 0.034284342533911605 2.716763839377261 0.15300122387374004 -0.6470387065951348 0.0 0.0 0.0 0.0 0.0 0.0 131072 26.5625 27.0625 27.125 30.5625 32.6875 33.6875 0.61854 7 253 253 253 253 253 253 1 4.003105163574219 -2.5091233253479004 -8.216899871826172 0.0 1.0 0.0 47.70658874511719 47.77375411987305 0.5225711464881897 47.65659713745117 47.61359786987305 47.68526077270508 47.51326370239258 47.64226531982422 47.4559326171875 0 1 0.0002384185791015625
242.708 -3.7105653921710413 -2.0582691631712855 -1.886815071105957 -0.5791891378215333 2.116410732269287 -2.2022135893451136 0.0 0.0 0.0 0.0 0.0 0.0 0.0 0.0 0.0 0.0 0.0 0.0 -5.119957131861896e-17 3.872442111831664 1.7820696732363055 0.38837382375138735 0.1906135262331136 0.0 -5.177075084718675e-16 39.26556251748637 18.211883872206165 3.098163573383086 1.5182239597560205 0.0 -3.7105892340289515 -2.058340688745016 -1.8867807388305664 -0.5791776937297364 2.1163992881774902 -2.2021897474872034 0.0 0.0 -0.0 -0.0 -0.0 0.0 -0.25750383734703064 3.465928554534912 1.8042688369750977 0.11585736274719238 0.09514835476875305 -0.024845685809850693 -5.119957131861896e-17 3.872442111831664 1.7820696732363055 0.38837382375138735 0.1906135262331136 0.0 -0.5276497138129665 0.31778818104446044 0.03425457243398208 2.7167716806004165 0.1529249782740384 -0.6470009362562495 0.0 0.0 0.0 0.0 0.0 0.0 0.03642379456330855 -0.34935267410588716 0.05187033843614817 0.005328937489559828 -0.0038899607281606156 -0.000984589927135197 -0.5276495644051131 0.3177672986909083 0.034284342533911605 2.716763839377261 0.15300122387374004 -0.6470387065951348 0.0 0.0 0.0 0.0 0.0 0.0 131072 26.5625 27.0625 27.125 30.5625 32.6875 33.6875 0.6366 7 253 253 253 253 253 253 1 3.9456443786621094 -2.5665841102600098 -8.35097599029541 0.0 1.0 0.0 47.75226593017578 47.78361129760742 0.5539045929908752 47.65659713745117 47.65659713745117 47.68526077270508 47.54193115234375 47.6279296875 47.48460006713867 0 1 0.00039418538411458337
242.71599999999998 -3.7105653921710413 -2.0582691631712855 -1.886815071105957 -0.5791891378215333 2.116410732269287 -2.2022135893451136 0.0 0.0 0.0 0.0 0.0 0.0 0.0 0.0 0.0 0.0 0.0 0.0 -8.068336159327969e-17 3.87233719563821 1.781919251494747 0.3883469068848344 0.19063979822303714 0.0 -8.158346062245563e-16 39.26449869439123 18.210346635289866 3.097948850221112 1.5184332143947687 0.0 -3.7105653921710413 -2.0582453213133753 -1.8868036270141602 -0.5791891378215333 2.1164584159851074 -2.202249352131979 0.0 0.0 -0.0 -0.0 -0.0 0.0 -0.2737843990325928 3.412588357925415 1.8109126091003418 0.09666068851947784 0.10641327500343323 -0.01904265210032463 -8.068336159327969e-17 3.87233719563821 1.781919251494747 0.3883469068848344 0.19063979822303714 0.0 -0.527662174198291 0.3177615369251071 0.03431079473736362 2.7167298627328846 0.15306830798745372 -0.6471197669336339 0.0 0.0 0.0 0.0 0.0 0.0 -0.3338330883410664 -0.41493321003026307 -0.07449065749546951 0.003631832131767525 -0.011566608528935112 -0.0007686661282554571 -0.5276495644051131 0.3177672986909083 0.034284342533911605 2.716763839377261 0.15300122387374004 -0.6470387065951348 0.0 0.0 0.0 0.0 0.0 0.0 131072 26.5625 27.0625 27.125 30.5625 32.6875 33.6875 0.627984 7 253 253 253 253 253 253 1 4.003105163574219 -2.4899697303771973 -8.274360656738281 0.0 1.0 0.0 47.734352111816406 47.785400390625 0.5069043636322021 47.65659713745117 47.599266052246094 47.68526077270508 47.498931884765625 47.6279296875 47.48460006713867 0 1 0.00012079874674479167
242.724 -3.7105653921710413 -2.0582691631712855 -1.886815071105957 -0.5791891378215333 2.116410732269287 -2.2022135893451136 0.0 0.0 0.0 0.0 0.0 0.0 0.0 0.0 0.0 0.0 0.0 0.0 -1.69100753871514e-17 3.8723236463591575 1.7820447823564176 0.3883662883613902 0.19062580571400456 0.0 -1.709872323397754e-16 39.264361308202275 18.211629499540045 3.0981034615285465 1.5183217649982321 0.0 -3.7105777899371546 -2.0582810841002406 -1.8868036270141602 -0.5792253774455567 2.1163992881774902 -2.2022011915790003 0.0 0.0 -0.0 -0.0 -0.0 0.0 -0.2665536105632782 3.438385009765625 1.8327544927597046 0.09644308686256409 0.09105606377124786 -0.01458092499524355 -1.69100753871514e-17 3.8723236463591575 1.7820447823564176 0.3883662883613902 0.19062580571400456 0.0 -0.5276412092361566 0.3177742932068282 0.03427486609080624 2.716766762739817 0.15295198311493108 -0.6469877180334371 0.0 0.0 0.0 0.0 0.0 0.0 0.028153047080797272 -0.1707526842106208 -0.0066765113140503235 0.0008321245495791535 -0.007369951407808462 -0.002981196692890697 -0.5276495644051131 0.3177672986909083 0.034284342533911605 2.716763839377261 0.15300122387374004 -0.6470387065951348 0.0 0.0 0.0 0.0 0.0 0.0 131072 26.5625 27.0625 27.125 30.5625 32.6875 33.6875 0.660445 7 253 253 253 253 253 253 1 4.003105163574219 -2.4899697303771973 -8.312667846679688 0.0 1.0 0.0 47.744205474853516 47.78718948364258 0.5964226126670837 47.6995964050293 47.65659713745117 47.68526077270508 47.5275993347168 47.6995964050293 47.498931884765625 0 1 0.0002384185791015625
242.732 -3.7105653921710413 -2.0582691631712855 -1.886815071105957 -0.5791891378215333 2.116410732269287 -2.2022135893451136 0.0 0.0 0.0 0.0 0.0 0.0 0.0 0.0 0.0 0.0 0.0 0.0 -7.040247661070336e-17 3.8723567909328853 1.7819386938330268 0.38834558724093443 0.19062879957569565 0.0 -7.118788266713812e-16 39.264697385616536 18.210545326515174 3.0979383230629702 1.5183456109059252 0.0 -3.7105653921710413 -2.0582572422423304 -1.8868284225463867 -0.5791891378215333 2.1164231300354004 -2.2022135893451136 0.0 0.0 -0.0 -0.0 -0.0 0.0 -0.23065942525863647 3.387946367263794 1.7835347652435303 0.09659723937511444 0.09929567575454712 -0.03360636904835701 -7.040247661070336e-17 3.8723567909328853 1.7819386938330268 0.38834558724093443 0.19062879957569565 0.0 -0.527646530895639 0.3177617632250821 0.03428794277795927 2.716751204675246 0.15300168949485343 -0.6470443773209887 0.0 0.0 0.0 0.0 0.0 0.0 -0.03310333840274557 -0.3191892611153959 -0.19870787510800175 0.004123440234036763 -0.003101753509322278 -0.0016761668787704446 -0.5276495644051131 0.3177672986909083 0.034284342533911605 2.716763839377261 0.15300122387374004 -0.6470387065951348 0.0 0.0 0.0 0.0 0.0 0.0 131072 26.5625 27.0625 27.125 30.5625 32.6875 33.6875 0.664644 7 253 253 253 253 253 253 1 3.9839515686035156 -2.5665841102600098 -8.350975036621094 0.0 1.0 0.0 47.70390319824219 47.74509811401367 0.5001915693283081 47.64226531982422 47.584930419921875 47.6279296875 47.5275993347168 47.570594787597656 47.498931884765625 0 1 0.00011920928955078125
242.73999999999998 -3.7105653921710413 -2.0582691631712855 -1.886815071105957 -0.5791891378215333 2.116410732269287 -2.2022135893451136 0.0 0.0 0.0 0.0 0.0 0.0 0.0 0.0 0.0 0.0 0.0 0.0 -9.617034178107837e-17 3.8723774156405866 1.78195915754897 0.38834932301792785 0.1906208978045766 0.0 -9.724321268733817e-16 39.26490651482396 18.210754455722604 3.097968124371636 1.5182826738286124 0.0 -3.7105653921710413 -2.0582810841002406 -1.886815071105957 -0.5791776937297364 2.1163992881774902 -2.2022255102740687 0.0 0.0 -0.0 -0.0 -0.0 0.0 -0.2873617112636566 3.4058005809783936 1.7907733917236328 0.10347448289394379 0.1076454222202301 -0.02968081831932068 -9.617034178107837e-17 3.8723774156405866 1.78195915754897 0.38834932301792785 0.1906208978045766 0.0 -0.5276491626728869 0.3177703764660823 0.0342769706592877 2.7167761556746894 0.153016322462199 -0.6470346890023799 0.0 0.0 0.0 0.0 0.0 0.0 -0.06509811280432837 -0.2358932916440788 -0.06275810757051789 0.0028203779073100958 -0.0049583324682943835 -0.003807493839972219 -0.5276495644051131 0.3177672986909083 0.034284342533911605 2.716763839377261 0.15300122387374004 -0.6470387065951348 0.0 0.0 0.0 0.0 0.0 0.0 131072 26.5625 27.0625 27.125 30.5625 32.6875 33.6875 0.618108 7 253 253 253 253 253 253 1 3.9647979736328125 -2.5282769203186035 -8.350975036621094 0.0 1.0 0.0 47.718231201171875 47.77375411987305 0.5113813281059265 47.65659713745117 47.61359786987305 47.68526077270508 47.498931884765625 47.61359786987305 47.51326370239258 0 1 0.000362396240234375
242.748 -3.7105653921710413 -2.0582691631712855 -1.886815071105957 -0.5791891378215333 2.116410732269287 -2.2022135893451136 0.0 0.0 0.0 0.0 0.0 0.0 0.0 0.0 0.0 0.0 0.0 0.0 4.679384520134065e-17 3.872455728737535 1.7818515642797292 0.38832763615350047 0.19063139435952492 0.0 4.73158746979481e-16 39.2657005893938 18.209654904928225 3.0977951223584186 1.5183662781851988 0.0 -3.7105892340289515 -2.0582810841002406 -1.8868036270141602 -0.5791776937297364 2.116410732269287 -2.2021897474872034 0.0 0.0 -0.0 -0.0 -0.0 0.0 -0.2668612599372864 3.4028658866882324 1.8338627815246582 0.10744017362594604 0.10232936590909958 -0.023482495918869972 4.679384520134065e-17 3.872455728737535 1.7818515642797292 0.38832763615350047 0.19063139435952492 0.0 -0.5276476861769349 0.31778354114751006 0.03428341865239096 2.7167705527410453 0.15294078852811968 -0.6470519071865585 0.0 0.0 0.0 0.0 0.0 0.0 0.08957696457595721 -0.17436107381045865 0.054918470330419925 0.0036465385581787597 -0.0031406427593414056 -0.004374882769547157 -0.5276495644051131 0.3177672986909083 0.034284342533911605 2.716763839377261 0.15300122387374004 -0.6470387065951348 0.0 0.0 0.0 0.0 0.0 0.0 131072 26.5625 27.0625 27.125 30.5625 32.6875 33.6875 0.620004 7 253 253 253 253 253 253 1 3.9839515686035156 -2.5665841102600098 -8.427590370178223 0.0 1.0 0.0 47.76659393310547 47.790771484375 0.5516634583473206 47.68526077270508 47.65659713745117 47.6995964050293 47.5275993347168 47.64226531982422 47.48460006713867 0 1 0.0005960464477539062
242.756 -3.7105653921710413 -2.0582691631712855 -1.886815071105957 -0.5791891378215333 2.116410732269287 -2.2022135893451136 0.0 0.0 0.0 0.0 0.0 0.0 0.0 0.0 0.0 0.0 0.0 0.0 -4.0349023326101515e-17 3.872284469758754 1.781959586474136 0.3883517458164173 0.19062437553295267 0.0 -4.0799154753533847e-16 39.26396406759598 18.210758839128836 3.0979874516938355 1.5183103737020178 0.0 -3.7106016317950647 -2.0582810841002406 -1.886815071105957 -0.5792139333537598 2.1164469718933105 -2.2022135893451136 0.0 0.0 -0.0 -0.0 -0.0 0.0 -0.24947413802146912 3.4150867462158203 1.8431878089904785 0.09065230190753937 0.09177587926387787 -0.01636415906250477 -4.0349023326101515e-17 3.872284469758754 1.781959586474136 0.3883517458164173 0.19062437553295267 0.0 -0.527636078032133 0.31777463997114985 0.03427875555805135 2.7167267492418037 0.15294065824298084 -0.6470264666324754 0.0 0.0 0.0 0.0 0.0 0.0 -0.052087218084100495 -0.1942928395992 -0.2419439280518862 0.0006981581347315806 -0.005572126837789951 -0.0025668877835939613 -0.5276495644051131 0.3177672986909083 0.034284342533911605 2.716763839377261 0.15300122387374004 -0.6470387065951348 0.0 0.0 0.0 0.0 0.0 0.0 131072 26.5625 27.0625 27.125 30.5625 32.6875 33.6875 0.615024 7 253 253 253 253 253 253 1 4.079719543457031 -2.4133553504943848 -8.427590370178223 0.0 1.0 0.0 47.743309020996094 47.782711029052734 0.5292839407920837 47.65659713745117 47.61359786987305 47.65659713745117 47.498931884765625 47.570594787597656 47.47026824951172 0 1 0.00011920928955078125
242.76399999999998 -3.7105653921710413 -2.0582691631712855 -1.886815071105957 -0.5791891378215333 2.116410732269287 -2.2022135893451136 0.0 0.0 0.0 0.0 0.0 0.0 0.0 0.0 0.0 0.0 0.0 0.0 2.5436809548166573e-16 3.8722834639043064 1.7819585884711586 0.38835046729609013 0.1906354554294342 0.0 2.5720581160150886e-15 39.263953868491754 18.210748640024615 3.097977252589614 1.5183986243348155 0.0 -3.710552994404928 -2.0582810841002406 -1.8867921829223633 -0.5791652959636231 2.1164231300354004 -2.2022374312030237 0.0 0.0 -0.0 -0.0 -0.0 0.0 -0.2690836787223816 3.4528651237487793 1.8427040576934814 0.09021513164043427 0.099135622382164 -0.021243266761302948 2.5436809548166573e-16 3.8722834639043064 1.7819585884711586 0.38835046729609013 0.1906354554294342 0.0 -0.5276677121149782 0.3177662832433243 0.034291793434046036 2.716760469050292 0.15306545128658014 -0.6470912407463645 0.0 0.0 0.0 0.0 0.0 0.0 -0.11064948816896489 -0.14561789787956148 0.04078788613187369 -0.0008233407071990499 -0.005996280660764299 -0.0008983227704655189 -0.5276495644051131 0.3177672986909083 0.034284342533911605 2.716763839377261 0.15300122387374004 -0.6470387065951348 0.0 0.0 0.0 0.0 0.0 0.0 131072 26.5625 27.0625 27.125 30.5625 32.6875 33.6875 0.619561 7 253 253 253 253 253 253 1 4.060565948486328 -2.5091233253479004 -8.293514251708984 0.0 1.0 0.0 47.75315856933594 47.782711029052734 0.5292839407920837 47.65659713745117 47.64226531982422 47.71392822265625 47.5275993347168 47.64226531982422 47.498931884765625 0 1 0.00011920928955078125
242.772 -3.7105653921710413 -2.0582691631712855 -1.886815071105957 -0.5791891378215333 2.116410732269287 -2.2022135893451136 0.0 0.0 0.0 0.0 0.0 0.0 0.0 0.0 0.0 0.0 0.0 0.0 -3.2231523894448356e-17 3.8723523346310698 1.7820269216087556 0.38836682279132956 0.19062219493983526 0.0 -3.2591096956271194e-16 39.26465219986747 18.211446971400335 3.09810772482146 1.5182930054240014 0.0 -3.7105653921710413 -2.058340688745016 -1.8868284225463867 -0.5791891378215333 2.1163992881774902 -2.2022011915790003 0.0 0.0 -0.0 -0.0 -0.0 0.0 -0.25095370411872864 3.4390311241149902 1.815875768661499 0.10231063514947891 0.08986688405275345 -0.040301769971847534 -3.2231523894448356e-17 3.8723523346310698 1.7820269216087556 0.38836682279132956 0.19062219493983526 0.0 -0.5276349173924801 0.3177612861761322 0.03423306478078253 2.716750482521699 0.15294906250090412 -0.6469262717714118 0.0 0.0 0.0 0.0 0.0 0.0 -0.0941590640405866 -0.3425857589129445 -0.17526239099691113 0.0007247843261387293 -0.005762636585692213 -0.004814693256785362 -0.5276495644051131 0.3177672986909083 0.034284342533911605 2.716763839377261 0.15300122387374004 -0.6470387065951348 0.0 0.0 0.0 0.0 0.0 0.0 131072 26.5625 27.0625 27.125 30.5625 32.6875 33.6875 0.656724 7 253 253 253 253 253 253 1 3.9839515686035156 -2.5665841102600098 -8.370129585266113 0.0 1.0 0.0 47.694053649902344 47.736141204833984 0.48228898644447327 47.6279296875 47.599266052246094 47.65659713745117 47.4559326171875 47.570594787597656 47.4559326171875 0 1 0.000152587890625
242.78 -3.7105653921710413 -2.0582691631712855 -1.886815071105957 -0.5791891378215333 2.116410732269287 -2.2022135893451136 0.0 0.0 0.0 0.0 0.0 0.0 0.0 0.0 0.0 0.0 0.0 0.0 2.0242146735595363e-16 3.8722841435420956 1.7819592628038503 0.38835133116931814 0.19062796903889906 0.0 2.046796698236436e-15 39.26396075984334 18.2107555313762 3.097984143941202 1.5183389957360107 0.0 -3.710552994404928 -2.0582691631712855 -1.8868284225463867 -0.5792015355876465 2.1163992881774902 -2.2022011915790003 0.0 0.0 -0.0 -0.0 -0.0 0.0 -0.2775506377220154 3.410839319229126 1.823157548904419 0.10553279519081116 0.11725743114948273 -0.020549671724438667 2.0242146735595363e-16 3.8722841435420956 1.7819592628038503 0.38835133116931814 0.19062796903889906 0.0 -0.5276442875562442 0.3177581651954953 0.03427531373064144 2.7167637634214756 0.15298974519969294 -0.6469938565582984 0.0 0.0 0.0 0.0 0.0 0.0 -0.1555603930912731 -0.2535265451249716 -0.08393084140737045 0.003451257628015968 -0.009229729817177207 0.00027006917635651355 -0.5276495644051131 0.3177672986909083 0.034284342533911605 2.716763839377261 0.15300122387374004 -0.6470387065951348 0.0 0.0 0.0 0.0 0.0 0.0 131072 26.5625 27.0625 27.125 30.5625 32.6875 33.6875 0.628717 7 253 253 253 253 253 253 1 4.1180267333984375 -2.5091233253479004 -8.40843677520752 0.0 1.0 0.0 47.71464920043945 47.749576568603516 0.5069043636322021 47.64226531982422 47.599266052246094 47.65659713745117 47.5275993347168 47.570594787597656 47.427268981933594 0 1 0.0001239776611328125
242.78799999999998 -3.7105653921710413 -2.0582691631712855 -1.886815071105957 -0.5791891378215333 2.116410732269287 -2.2022135893451136 0.0 0.0 0.0 0.0 0.0 0.0 0.0 0.0 0.0 0.0 0.0 0.0 -4.965111909247714e-17 3.872357117110321 1.7819390174643965 0.388346001838179 0.19062520605409292 0.0 -5.020502417538534e-16 39.264700692971466 18.210548633870104 3.0979416304179006 1.5183169887472308 0.0 -3.7105653921710413 -2.0582930050291957 -1.8868398666381836 -0.5792139333537598 2.1164345741271973 -2.2022255102740687 0.0 0.0 -0.0 -0.0 -0.0 0.0 -0.28932833671569824 3.4471547603607178 1.831449031829834 0.10003191232681274 0.10663515329360962 -0.02503466233611107 -4.965111909247714e-17 3.872357117110321 1.7819390174643965 0.388346001838179 0.19062520605409292 0.0 -0.5276344327432656 0.3177507026074674 0.03425926781942365 2.716721014118833 0.1529900344615312 -0.6469679885742505 0.0 0.0 0.0 0.0 0.0 0.0 0.11205713916531791 -0.25650963919448744 -0.1823740585250473 0.0016954473930099578 -0.0008435512008892123 -0.00478940328119319 -0.5276495644051131 0.3177672986909083 0.034284342533911605 2.716763839377261 0.15300122387374004 -0.6470387065951348 0.0 0.0 0.0 0.0 0.0 0.0 131072 26.5625 27.0625 27.125 30.5625 32.6875 33.6875 0.663828 7 253 253 253 253 253 253 1 4.041412353515625 -2.5665841102600098 -8.389283180236816 0.0 1.0 0.0 47.72897720336914 47.77375411987305 0.5270481109619141 47.65659713745117 47.64226531982422 47.6995964050293 47.5275993347168 47.6279296875 47.47026824951172 0 1 0.00011920928955078125
242.796 -3.7105653921710413 -2.0582691631712855 -1.886815071105957 -0.5791891378215333 2.116410732269287 -2.2022135893451136 0.0 0.0 0.0 0.0 0.0 0.0 0.0 0.0 0.0 0.0 0.0 0.0 -3.658666692410962e-21 3.8723504696526905 1.7819787463952554 0.3883510016213596 0.19063184467123565 0.0 -3.699482571582161e-20 39.26463328946855 18.21095464418835 3.097981515047547 1.5183698648877908 0.0 -3.7105777899371546 -2.0582930050291957 -1.8868036270141602 -0.5792015355876465 2.1164345741271973 -2.2022011915790003 0.0 0.0 -0.0 -0.0 -0.0 0.0 -0.2498510777950287 3.4094080924987793 1.7935246229171753 0.10249286890029907 0.11438804864883423 -0.026386532932519913 -3.658666692410962e-21 3.8723504696526905 1.7819787463952554 0.3883510016213596 0.19063184467123565 0.0 -0.5276481845772758 0.317768567758084 0.03427614712235966 2.71673528870473 0.1529595519845539 -0.6470231241686479 0.0 0.0 0.0 0.0 0.0 0.0 -0.134874625073878 -0.3052771472778728 -0.05094526611480983 0.005732269499481857 -0.0052678664935157556 -0.001058267713980615 -0.5276495644051131 0.3177672986909083 0.034284342533911605 2.716763839377261 0.15300122387374004 -0.6470387065951348 0.0 0.0 0.0 0.0 0.0 0.0 131072 26.5625 27.0625 27.125 30.5625 32.6875 33.6875 0.630792 7 253 253 253 253 253 253 1 3.9647979736328125 -2.470816135406494 -8.216899871826172 0.0 1.0 0.0 47.72987747192383 47.78718948364258 0.5382378697395325 47.65659713745117 47.599266052246094 47.68526077270508 47.4559326171875 47.6279296875 47.427268981933594 0 1 0.000362396240234375
242.804 -3.7105653921710413 -2.0582691631712855 -1.886815071105957 -0.5791891378215333 2.116410732269287 -2.2022135893451136 0.0 0.0 0.0 0.0 0.0 0.0 0.0 0.0 0.0 0.0 0.0 0.0 -7.040247661070336e-17 3.8723567909328853 1.7819386938330268 0.3883455872409344 0.19062879957569562 0.0 -7.118788266713812e-16 39.264697385616536 18.210545326515174 3.09793832306297 1.518345610905925 0.0 -3.7105653921710413 -2.0582930050291957 -1.8868284225463867 -0.5791776937297364 2.116410732269287 -2.2022374312030237 0.0 0.0 -0.0 -0.0 -0.0 0.0 -0.296609103679657 3.435756206512451 1.7805697917938232 0.09797509759664536 0.10334492474794388 -0.02263125404715538 -7.040247661070336e-17 3.8723567909328853 1.7819386938330268 0.3883455872409344 0.19062879957569562 0.0 -0.5276434469651796 0.3177634144776321 0.03426575220585343 2.7167589759404756 0.15302338695669263 -0.6470145024698747 0.0 0.0 0.0 0.0 0.0 0.0 -0.0904588072268377 -0.25140987860461367 -0.15254142397226572 0.003693764551392866 -0.005508098251297782 0.0008455005685028614 -0.5276495644051131 0.3177672986909083 0.034284342533911605 2.716763839377261 0.15300122387374004 -0.6470387065951348 0.0 0.0 0.0 0.0 0.0 0.0 131072 26.5625 27.0625 27.125 30.5625 32.6875 33.6875 0.625812 7 253 253 253 253 253 253 1 4.1180267333984375 -2.4899697303771973 -8.446743965148926 0.0 1.0 0.0 47.74151611328125 47.785400390625 0.4778119921684265 47.670928955078125 47.64226531982422 47.71392822265625 47.5275993347168 47.64226531982422 47.48460006713867 0 1 0.00011920928955078125
242.81199999999998 -3.7105653921710413 -2.0582691631712855 -1.886815071105957 -0.5791891378215333 2.116410732269287 -2.2022135893451136 0.0 0.0 0.0 0.0 0.0 0.0 0.0 0.0 0.0 0.0 0.0 0.0 1.0116233119628392e-16 3.8723845705567568 1.7819662566154988 0.3883584174806373 0.1906195827144545 0.0 1.0229089245477438e-15 39.264979063825365 18.210827004724006 3.0980406733730432 1.5182721992239394 0.0 -3.7105653921710413 -2.058221479455465 -1.8868284225463867 -0.5792253774455567 2.116410732269287 -2.2022255102740687 0.0 0.0 -0.0 -0.0 -0.0 0.0 -0.2964460253715515 3.394552230834961 1.8352904319763184 0.10184013843536377 0.11668602377176285 -0.04203881695866585 1.0116233119628392e-16 3.8723845705567568 1.7819662566154988 0.3883584174806373 0.1906195827144545 0.0 -0.5276423106115578 0.317762593687391 0.03430291684624601 2.7167643254108635 0.15301701513963106 -0.6470397780675797 0.0 0.0 0.0 0.0 0.0 0.0 -0.16030683449918537 -0.22989293601814006 -0.06069122520534295 0.002551825205320524 -0.01105687545426567 0.0004558762728721442 -0.5276495644051131 0.3177672986909083 0.034284342533911605 2.716763839377261 0.15300122387374004 -0.6470387065951348 0.0 0.0 0.0 0.0 0.0 0.0 131072 26.5625 27.0625 27.125 30.5625 32.6875 33.6875 0.628044 7 253 253 253 253 253 253 1 3.88818359375 -2.5282769203186035 -8.274360656738281 0.0 1.0 0.0 47.71017074584961 47.75226593017578 0.5248122811317444 47.64226531982422 47.570594787597656 47.65659713745117 47.498931884765625 47.570594787597656 47.48460006713867 0 1 0.0001239776611328125
242.82 -3.7105653921710413 -2.0582691631712855 -1.886815071105957 -0.5791891378215333 2.116410732269287 -2.2022135893451136 0.0 0.0 0.0 0.0 0.0 0.0 0.0 0.0 0.0 0.0 0.0 0.0 2.702319589142831e-17 3.872383222738754 1.7818722711966681 0.3883335558540798 0.19062700517397846 0.0 2.7324665139942274e-16 39.26496539729904 18.20986651953135 3.09784234541924 1.5183313186165253 0.0 -3.7105777899371546 -2.0582691631712855 -1.886815071105957 -0.5791776937297364 2.1164469718933105 -2.2022374312030237 0.0 0.0 -0.0 -0.0 -0.0 0.0 -0.3062231242656708 3.451633930206299 1.8235111236572266 0.10240364819765091 0.09722358733415604 -0.034361835569143295 2.702319589142831e-17 3.872383222738754 1.7818722711966681 0.3883335558540798 0.19062700517397846 0.0 -0.5276516859373864 0.31776723315273714 0.03429131679066447 2.7167365410080095 0.15302465098298076 -0.6470843936592731 0.0 0.0 0.0 0.0 0.0 0.0 -0.10686371289417021 -0.3716380359290137 -0.30357041643174765 0.004001005180511905 -0.005455932167137958 0.0008826177285555687 -0.5276495644051131 0.3177672986909083 0.034284342533911605 2.716763839377261 0.15300122387374004 -0.6470387065951348 0.0 0.0 0.0 0.0 0.0 0.0 131072 26.5625 27.0625 27.125 30.5625 32.6875 33.6875 0.626869 7 253 253 253 253 253 253 1 3.9647979736328125 -2.5282769203186035 -8.465897560119629 0.0 1.0 0.0 47.73793411254883 47.78181838989258 0.5136224627494812 47.65659713745117 47.61359786987305 47.68526077270508 47.48460006713867 47.61359786987305 47.48460006713867 0 1 0.00035762786865234375
242.828 -3.7105653921710413 -2.0582691631712855 -1.886815071105957 -0.5791891378215333 2.116410732269287 -2.2022135893451136 0.0 0.0 0.0 0.0 0.0 0.0 0.0 0.0 0.0 0.0 0.0 0.0 -1.8674431536059788e-16 3.872330878169452 1.7819593078386613 0.3883485788956874 0.1906283670169088 0.0 -1.8882762440524983e-15 39.26443463689023 18.21075599161003 3.0979621883062305 1.518342165604182 0.0 -3.7105777899371546 -2.0583049259581507 -1.8868284225463867 -0.5791414541057129 2.116410732269287 -2.2022011915790003 0.0 0.0 -0.0 -0.0 -0.0 0.0 -0.25212496519088745 3.404794692993164 1.8434815406799316 0.10513602197170258 0.10433077067136765 -0.03067660517990589 -1.8674431536059788e-16 3.872330878169452 1.7819593078386613 0.3883485788956874 0.1906283670169088 0.0 -0.5276449605458093 0.31777349266165505 0.034263634827948586 2.7167654810538138 0.15296668061764912 -0.6470369892185645 0.0 0.0 0.0 0.0 0.0 0.0 -0.10976685994862706 -0.38401326201314934 -0.07190795810123238 0.005126417073209342 -0.004713054059301663 -0.002163119766500888 -0.5276495644051131 0.3177672986909083 0.034284342533911605 2.716763839377261 0.15300122387374004 -0.6470387065951348 0.0 0.0 0.0 0.0 0.0 0.0 131072 26.5625 27.0625 27.125 30.5625 32.6875 33.6875 0.625044 7 253 253 253 253 253 253 1 3.9264907836914062 -2.6240451335906982 -8.35097599029541 0.0 1.0 0.0 47.742408752441406 47.78450393676758 0.5158582925796509 47.670928955078125 47.61359786987305 47.71392822265625 47.48460006713867 47.6279296875 47.498931884765625 0 1 0.0001239776611328125
242.83599999999998 -3.7105653921710413 -2.0582691631712855 -1.886815071105957 -0.5791891378215333 2.116410732269287 -2.2022135893451136 0.0 0.0 0.0 0.0 0.0 0.0 0.0 0.0 0.0 0.0 0.0 0.0 7.72562854593358e-17 3.872413300567305 1.782041086866097 0.38835968092297174 0.19063412284906656 0.0 7.811815222054274e-16 39.265270378709545 18.211591733429337 3.098050752196018 1.5183880104215093 0.0 -3.710529152547018 -2.0582930050291957 -1.8867921829223633 -0.5792139333537598 2.1164231300354004 -2.2022135893451136 0.0 0.0 -0.0 -0.0 -0.0 0.0 -0.20721259713172913 3.397023916244507 1.8218106031417847 0.0985182523727417 0.10402669757604599 -0.04498583823442459 7.72562854593358e-17 3.872413300567305 1.782041086866097 0.38835968092297174 0.19063412284906656 0.0 -0.5276649493835978 0.3177470401292886 0.0342774453986639 2.716735456349378 0.15304084599625092 -0.6470048619123256 0.0 0.0 0.0 0.0 0.0 0.0 -0.1955082530050694 -0.3591906646354014 -0.06923913257140671 0.0036952818114269715 -0.007978721467068985 -0.003272665914182147 -0.5276495644051131 0.3177672986909083 0.034284342533911605 2.716763839377261 0.15300122387374004 -0.6470387065951348 0.0 0.0 0.0 0.0 0.0 0.0 131072 26.5625 27.0625 27.125 30.5625 32.6875 33.6875 0.632689 7 253 253 253 253 253 253 1 4.003105163574219 -2.3942017555236816 -8.446743965148926 0.0 1.0 0.0 47.72897720336914 47.78898239135742 0.6076123714447021 47.65659713745117 47.61359786987305 47.65659713745117 47.48460006713867 47.570594787597656 47.4559326171875 0 1 0.00031789143880208337
242.844 -3.7105653921710413 -2.0582691631712855 -1.886815071105957 -0.5791891378215333 2.116410732269287 -2.2022135893451136 0.0 0.0 0.0 0.0 0.0 0.0 0.0 0.0 0.0 0.0 0.0 0.0 -3.579848717459314e-17 3.8723788303956286 1.7819605612607565 0.38835112128315735 0.19063182736692705 0.0 -3.619785307749453e-16 39.26492086007457 18.210768800973202 3.097982469622239 1.5183697270601326 0.0 -3.7105653921710413 -2.0582572422423304 -1.8867921829223633 -0.5792015355876465 2.116386890411377 -2.2022255102740687 0.0 0.0 -0.0 -0.0 -0.0 0.0 -0.2509445548057556 3.45367431640625 1.7851043939590454 0.09982629120349884 0.09954046458005905 -0.027685143053531647 -3.579848717459314e-17 3.8723788303956286 1.7819605612607565 0.38835112128315735 0.19063182736692705 0.0 -0.5276556764208898 0.31777808926557516 0.03429592523547967 2.716794660071925 0.1530246605391356 -0.6470548241966162 0.0 0.0 0.0 0.0 0.0 0.0 0.02536827652140329 -0.3707013243850443 -0.062561890741755 0.00495677367217394 -0.004815455196585477 -0.005936894449960996 -0.5276495644051131 0.3177672986909083 0.034284342533911605 2.716763839377261 0.15300122387374004 -0.6470387065951348 0.0 0.0 0.0 0.0 0.0 0.0 131072 26.5625 27.0625 27.125 30.5625 32.6875 33.6875 0.62178 7 253 253 253 253 253 253 1 4.041412353515625 -2.5282769203186035 -8.293514251708984 0.0 1.0 0.0 47.75226593017578 47.780921936035156 0.4778119921684265 47.6995964050293 47.64226531982422 47.71392822265625 47.5562629699707 47.64226531982422 47.498931884765625 0 1 0.0002384185791015625
242.85199999999998 -3.7105653921710413 -2.0582691631712855 -1.886815071105957 -0.5791891378215333 2.116410732269287 -2.2022135893451136 0.0 0.0 0.0 0.0 0.0 0.0 0.0 0.0 0.0 0.0 0.0 0.0 -1.0993874059626193e-16 3.872386024009465 1.7818750506013004 0.3883371164900706 0.1906226624004904 0.0 -1.1116521098278787e-15 39.26499380146031 18.209894923692623 3.0978707495805144 1.518296728716786 0.0 -3.7105777899371546 -2.0582691631712855 -1.886815071105957 -0.5792015355876465 2.1163744926452637 -2.2022255102740687 0.0 0.0 -0.0 -0.0 -0.0 0.0 -0.24103333055973053 3.4032955169677734 1.8364914655685425 0.09780733287334442 0.11439792811870575 -0.020689142867922783 -1.0993874059626193e-16 3.872386024009465 1.7818750506013004 0.3883371164900706 0.1906226624004904 0.0 -0.5276393858662681 0.3177803329822522 0.034277231177213624 2.716800327146745 0.15299289552686604 -0.6470090640774422 0.0 0.0 0.0 0.0 0.0 0.0 0.11499497974874018 -0.22198417879157323 -0.13041400552171223 0.0016950899044078243 -0.0023648510252052488 -0.003401754391595372 -0.5276495644051131 0.3177672986909083 0.034284342533911605 2.716763839377261 0.15300122387374004 -0.6470387065951348 0.0 0.0 0.0 0.0 0.0 0.0 131072 26.5625 27.0625 27.125 30.5625 32.6875 33.6875 0.61584 7 253 253 253 253 253 253 1 4.003105163574219 -2.5091233253479004 -8.389283180236816 0.0 1.0 0.0 47.70390319824219 47.75942611694336 0.5270481109619141 47.599266052246094 47.584930419921875 47.65659713745117 47.48460006713867 47.570594787597656 47.44160079956055 0 1 0.000362396240234375
242.85999999999999 -3.7105653921710413 -2.0582691631712855 -1.886815071105957 -0.5791891378215333 2.116410732269287 -2.2022135893451136 0.0 0.0 0.0 0.0 0.0 0.0 0.0 0.0 0.0 0.0 0.0 0.0 1.4623179632789324e-16 3.8722340223226213 1.7820485089538403 0.3883691892012682 0.19062921391891177 0.0 1.4786314999623562e-15 39.26345254362735 18.21166758355018 3.0981266023168605 1.5183489111218684 0.0 -3.710529152547018 -2.0582810841002406 -1.886815071105957 -0.5792139333537598 2.1163744926452637 -2.202261273060934 0.0 0.0 -0.0 -0.0 -0.0 0.0 -0.2777019739151001 3.4104933738708496 1.8259440660476685 0.10456647723913193 0.09093686938285828 -0.024691279977560043 1.4623179632789324e-16 3.8722340223226213 1.7820485089538403 0.3883691892012682 0.19062921391891177 0.0 -0.527651244999674 0.3177523615627127 0.034268105426447176 2.7167849105698805 0.15309767865246052 -0.6469761598022074 0.0 0.0 0.0 0.0 0.0 0.0 -0.053483025169670406 -0.1506871507912541 -0.23863142232529544 -0.0012854157978194436 -0.0021940562867742734 -0.0013194421279012825 -0.5276495644051131 0.3177672986909083 0.034284342533911605 2.716763839377261 0.15300122387374004 -0.6470387065951348 0.0 0.0 0.0 0.0 0.0 0.0 131072 26.5625 27.0625 27.125 30.5625 32.6875 33.6875 0.61818 7 253 253 253 253 253 253 1 3.9839515686035156 -2.470816135406494 -8.389283180236816 0.0 1.0 0.0 47.75315856933594 47.77286148071289 0.47109919786453247 47.65659713745117 47.6279296875 47.6995964050293 47.54193115234375 47.64226531982422 47.498931884765625 0 1 0.000476837158203125
242.868 -3.7105653921710413 -2.0582691631712855 -1.886815071105957 -0.5791891378215333 2.116410732269287 -2.2022135893451136 0.0 0.0 0.0 0.0 0.0 0.0 0.0 0.0 0.0 0.0 0.0 0.0 -6.389065493127815e-17 3.8723635924132838 1.7819454422226244 0.38835423245890627 0.19063137743969014 0.0 -6.460341547250291e-16 39.26476635087053 18.21061429176918 3.098007288316976 1.518366143419849 0.0 -3.7105892340289515 -2.0582810841002406 -1.8868284225463867 -0.5791414541057129 2.1163744926452637 -2.20217734972109 0.0 0.0 -0.0 -0.0 -0.0 0.0 -0.2530391216278076 3.3999414443969727 1.844811201095581 0.11320553719997406 0.10153549164533615 -0.030420251190662384 -6.389065493127815e-17 3.8723635924132838 1.7819454422226244 0.38835423245890627 0.19063137743969014 0.0 -0.5276399704941274 0.3177891502780723 0.03427298872309173 2.7168084584739733 0.15292527244641904 -0.6470405099241252 0.0 0.0 0.0 0.0 0.0 0.0 0.03026530783338685 -0.2637871300865444 -0.13044661010040737 0.0008497054049264813 -0.005006427286085174 -0.0012830079262960805 -0.5276495644051131 0.3177672986909083 0.034284342533911605 2.716763839377261 0.15300122387374004 -0.6470387065951348 0.0 0.0 0.0 0.0 0.0 0.0 131072 26.5625 27.0625 27.125 30.5625 32.6875 33.6875 0.61914 7 253 253 253 253 253 253 1 3.9839515686035156 -2.5282769203186035 -8.350975036621094 0.0 1.0 0.0 47.74509811401367 47.796146392822266 0.5225711464881897 47.68526077270508 47.64226531982422 47.6995964050293 47.5275993347168 47.6279296875 47.48460006713867 0 1 0.0001239776611328125
242.87599999999998 -3.7105653921710413 -2.0582691631712855 -1.886815071105957 -0.5791891378215333 2.116410732269287 -2.2022135893451136 0.0 0.0 0.0 0.0 0.0 0.0 0.0 0.0 0.0 0.0 0.0 0.0 4.786720527424233e-17 3.8722951447024414 1.7819238532989345 0.3883518654804672 0.19062435822936705 0.0 4.840120911525607e-16 39.264072308766956 18.21039366348676 3.097988406286493 1.5183102358801182 0.0 -3.7105653921710413 -2.0582691631712855 -1.8868036270141602 -0.5791776937297364 2.1164469718933105 -2.2021897474872034 0.0 0.0 -0.0 -0.0 -0.0 0.0 -0.29285189509391785 3.403402805328369 1.7980449199676514 0.10515172779560089 0.1030854806303978 -0.03697551041841507 4.786720527424233e-17 3.8722951447024414 1.7819238532989345 0.3883518654804672 0.19062435822936705 0.0 -0.5276604836183789 0.31776379665098786 0.034296083268698846 2.7167321904545427 0.1529807480875562 -0.6470811065126926 0.0 0.0 0.0 0.0 0.0 0.0 -0.161820902726916 -0.1781160097998348 -0.006051126135721688 0.0016471144198258588 -0.007267909151244387 -0.0003566551732760634 -0.5276495644051131 0.3177672986909083 0.034284342533911605 2.716763839377261 0.15300122387374004 -0.6470387065951348 0.0 0.0 0.0 0.0 0.0 0.0 131072 26.5625 27.0625 27.125 30.5625 32.6875 33.6875 0.648373 7 253 253 253 253 253 253 1 4.003105163574219 -2.4899697303771973 -8.236053466796875 0.0 1.0 0.0 47.742408752441406 47.775550842285156 0.5404736995697021 47.65659713745117 47.61359786987305 47.6995964050293 47.4559326171875 47.570594787597656 47.51326370239258 0 1 0.00016530354817708334
242.884 -3.7105653921710413 -2.0582691631712855 -1.886815071105957 -0.5791891378215333 2.116410732269287 -2.2022135893451136 0.0 0.0 0.0 0.0 0.0 0.0 0.0 0.0 0.0 0.0 0.0 0.0 -2.3096865630011133e-16 3.8722345750715146 1.7820027317171319 0.3883601859936519 0.1906266884323507 0.0 -2.335453295968164e-15 39.26345814835832 18.211199762492765 3.0980547812821393 1.5183287957906912 0.0 -3.710552994404928 -2.0583049259581507 -1.886815071105957 -0.5791891378215333 2.116410732269287 -2.2022135893451136 0.0 0.0 -0.0 -0.0 -0.0 0.0 -0.2576639652252197 3.427145004272461 1.789062738418579 0.10174055397510529 0.11684152483940125 -0.02457508072257042 -2.3096865630011133e-16 3.8722345750715146 1.7820027317171319 0.3883601859936519 0.1906266884323507 0.0 -0.5276496358052216 0.3177583021644344 0.03426232452776312 2.716750881362498 0.1530035014162618 -0.6469921780126114 0.0 0.0 0.0 0.0 0.0 0.0 0.0410037330568787 -0.33479765406634593 -0.02608853442210053 0.00436994138401051 -0.005851250047491104 -0.004161843596390209 -0.5276495644051131 0.3177672986909083 0.034284342533911605 2.716763839377261 0.15300122387374004 -0.6470387065951348 0.0 0.0 0.0 0.0 0.0 0.0 131072 26.5625 27.0625 27.125 30.5625 32.6875 33.6875 0.622452 7 253 253 253 253 253 253 1 3.9839515686035156 -2.4899697303771973 -8.370128631591797 0.0 1.0 0.0 47.75226593017578 47.77286148071289 0.5046685338020325 47.71392822265625 47.65659713745117 47.68526077270508 47.5275993347168 47.65659713745117 47.51326370239258 0 1 0.00035762786865234375
242.892 -3.7105653921710413 -2.0582691631712855 -1.886815071105957 -0.5791891378215333 2.116410732269287 -2.2022135893451136 0.0 0.0 0.0 0.0 0.0 0.0 0.0 0.0 0.0 0.0 0.0 0.0 1.7432716807661103e-16 3.872268905570115 1.781944143775999 0.38835444237891414 0.19062751912310422 0.0 1.7627195212683113e-15 39.26380625074439 18.21060102227725 3.0980089629059466 1.5183354121868624 0.0 -3.710552994404928 -2.0582691631712855 -1.8868284225463867 -0.5791891378215333 2.1164345741271973 -2.2022255102740687 0.0 0.0 -0.0 -0.0 -0.0 0.0 -0.27361229062080383 3.4563794136047363 1.8503305912017822 0.09578721225261688 0.09638418257236481 -0.043298572301864624 1.7432716807661103e-16 3.872268905570115 1.781944143775999 0.38835444237891414 0.19062751912310422 0.0 -0.5276504227545358 0.31775188258258547 0.034282285132377216 2.7167346618175996 0.1530308464295254 -0.6470367370424173 0.0 0.0 0.0 0.0 0.0 0.0 -0.17848827799905015 -0.17652107153042024 -0.07182734113149222 0.0006863272631233317 -0.009650466990655707 -0.004658419079326996 -0.5276495644051131 0.3177672986909083 0.034284342533911605 2.716763839377261 0.15300122387374004 -0.6470387065951348 0.0 0.0 0.0 0.0 0.0 0.0 131072 26.5625 27.0625 27.125 30.5625 32.6875 33.6875 0.632581 7 253 253 253 253 253 253 1 4.022258758544922 -2.470816135406494 -8.274360656738281 0.0 1.0 0.0 47.7218132019043 47.777339935302734 0.5337609052658081 47.670928955078125 47.64226531982422 47.68526077270508 47.51326370239258 47.61359786987305 47.427268981933594 0 1 0.00016530354817708334
242.89999999999998 -3.7105653921710413 -2.0582691631712855 -1.886815071105957 -0.5791891378215333 2.116410732269287 -2.2022135893451136 0.0 0.0 0.0 0.0 0.0 0.0 0.0 0.0 0.0 0.0 0.0 0.0 -6.586768555306603e-17 3.8722867291880556 1.7819618282668486 0.38835461772924457 0.19062396023493422 0.0 -6.6602501736348605e-16 39.263986977625336 18.2107817491582 3.0980103617232024 1.5183070658811382 0.0 -3.710552994404928 -2.0582691631712855 -1.8868398666381836 -0.5791891378215333 2.116386890411377 -2.2022135893451136 0.0 0.0 -0.0 -0.0 -0.0 0.0 -0.30777639150619507 3.4241838455200195 1.8089683055877686 0.10636874288320541 0.09487143158912659 -0.028070779517292976 -6.586768555306603e-17 3.8722867291880556 1.7819618282668486 0.38835461772924457 0.19062396023493422 0.0 -0.5276403907883378 0.3177592806047379 0.0342705121731037 2.7167774679356507 0.15300600821245522 -0.646991117506701 0.0 0.0 0.0 0.0 0.0 0.0 -0.1572351672572352 -0.32567047124418064 0.12801138600255169 0.0042172457489118576 -0.009877009524049114 -0.00463173069192179 -0.5276495644051131 0.3177672986909083 0.034284342533911605 2.716763839377261 0.15300122387374004 -0.6470387065951348 0.0 0.0 0.0 0.0 0.0 0.0 131072 26.5625 27.0625 27.125 30.5625 32.6875 33.6875 0.617112 7 253 253 253 253 253 253 1 4.003105163574219 -2.432508945465088 -8.293514251708984 0.0 1.0 0.0 47.737037658691406 47.77017593383789 0.5203352570533752 47.670928955078125 47.6279296875 47.68526077270508 47.51326370239258 47.61359786987305 47.498931884765625 0 1 0.00011920928955078125
242.908 -3.7105653921710413 -2.0582691631712855 -1.886815071105957 -0.5791891378215333 2.116410732269287 -2.2022135893451136 0.0 0.0 0.0 0.0 0.0 0.0 0.0 0.0 0.0 0.0 0.0 0.0 -1.3838248066606682e-17 3.872315089997415 1.781943642905489 0.38835473739117526 0.19062394293030835 0.0 -1.3992626781180296e-16 39.26427454890485 18.210595903624647 3.098011316298954 1.518306928050953 0.0 -3.7105777899371546 -2.0583049259581507 -1.8868284225463867 -0.5791652959636231 2.1163992881774902 -2.2022135893451136 0.0 0.0 -0.0 -0.0 -0.0 0.0 -0.23948828876018524 3.398836374282837 1.7961711883544922 0.10351452231407166 0.09701885282993317 -0.028644271194934845 -1.3838248066606682e-17 3.872315089997415 1.781943642905489 0.38835473739117526 0.19062394293030835 0.0 -0.5276392828505614 0.31777314830983183 0.034258517761521085 2.716771271018882 0.15297322059699828 -0.6470049985968875 0.0 0.0 0.0 0.0 0.0 0.0 -0.054630966616362395 -0.11883042917159313 -0.3382271152170165 -0.00033412473392722925 -0.003784265280480068 0.0008093398662174004 -0.5276495644051131 0.3177672986909083 0.034284342533911605 2.716763839377261 0.15300122387374004 -0.6470387065951348 0.0 0.0 0.0 0.0 0.0 0.0 131072 26.5625 27.0625 27.125 30.5625 32.6875 33.6875 0.62286 7 253 253 253 253 253 253 1 3.9839515686035156 -2.585737705230713 -8.33182144165039 0.0 1.0 0.0 47.743309020996094 47.78450393676758 0.5136224627494812 47.670928955078125 47.64226531982422 47.68526077270508 47.5275993347168 47.6279296875 47.4559326171875 0 1 0.0001239776611328125
242.916 -3.7105653921710413 -2.0582691631712855 -1.886815071105957 -0.5791891378215333 2.116410732269287 -2.2022135893451136 0.0 0.0 0.0 0.0 0.0 0.0 0.0 0.0 0.0 0.0 0.0 0.0 -1.5230356836143516e-17 3.8723479812575508 1.7820226022166756 0.3883612893102676 0.19061916737082668 0.0 -1.5400265837596895e-16 39.26460805778474 18.2114028293176 3.098063582738725 1.518268891039784 0.0 -3.7105653921710413 -2.0582691631712855 -1.8868036270141602 -0.5792139333537598 2.1164231300354004 -2.2022255102740687 0.0 0.0 -0.0 -0.0 -0.0 0.0 -0.2855907082557678 3.4166061878204346 1.800816535949707 0.10116119682788849 0.09973423182964325 -0.019136037677526474 -1.5230356836143516e-17 3.8723479812575508 1.7820226022166756 0.3883612893102676 0.19061916737082668 0.0 -0.5276511543736779 0.3177646934862384 0.03428735776401043 2.716748940358625 0.15301329981973594 -0.6470334367224476 0.0 0.0 0.0 0.0 0.0 0.0 -0.06314647919406433 -0.3164087416702049 -0.026847495369034094 0.0025495745119609465 -0.004699609034650936 -0.0009562195756617218 -0.5276495644051131 0.3177672986909083 0.034284342533911605 2.716763839377261 0.15300122387374004 -0.6470387065951348 0.0 0.0 0.0 0.0 0.0 0.0 131072 26.5625 27.0625 27.125 30.5625 32.6875 33.6875 0.621372 7 253 253 253 253 253 253 1 3.9839515686035156 -2.5665841102600098 -8.293514251708984 0.0 1.0 0.0 47.75315856933594 47.79435729980469 0.5874739289283752 47.670928955078125 47.61359786987305 47.68526077270508 47.498931884765625 47.6279296875 47.427268981933594 0 1 0.000152587890625
242.92399999999998 -3.7105653921710413 -2.0582691631712855 -1.886815071105957 -0.5791891378215333 2.116410732269287 -2.2022135893451136 0.0 0.0 0.0 0.0 0.0 0.0 0.0 0.0 0.0 0.0 0.0 0.0 -1.2346284479469502e-16 3.872289144574496 1.782010549884809 0.3883673917793513 0.19061828468272646 0.0 -1.248401893245276e-15 39.2640114690198 18.211279660357572 3.098112263793592 1.5182618604882316 0.0 -3.710552994404928 -2.058221479455465 -1.8868036270141602 -0.5791891378215333 2.1164231300354004 -2.2021897474872034 0.0 0.0 -0.0 -0.0 -0.0 0.0 -0.27891409397125244 3.3746323585510254 1.8008699417114258 0.10425740480422974 0.09689911454916 -0.039224229753017426 -1.2346284479469502e-16 3.872289144574496 1.782010549884809 0.3883673917793513 0.19061828468272646 0.0 -0.5276648635394185 0.31776440359183894 0.03432028858443009 2.7167626771383584 0.15301021632483744 -0.6471069353323349 0.0 0.0 0.0 0.0 0.0 0.0 -0.09966128623106188 -0.39890857193214435 -0.07788054602914854 0.005715386263537302 -0.008052084319245268 -0.0022741555687038387 -0.5276495644051131 0.3177672986909083 0.034284342533911605 2.716763839377261 0.15300122387374004 -0.6470387065951348 0.0 0.0 0.0 0.0 0.0 0.0 131072 26.5625 27.0625 27.125 30.5625 32.6875 33.6875 0.632952 7 253 253 253 253 253 253 1 4.079719543457031 -2.585737705230713 -8.33182144165039 0.0 1.0 0.0 47.737037658691406 47.777339935302734 0.5158582925796509 47.68526077270508 47.64226531982422 47.68526077270508 47.5562629699707 47.65659713745117 47.47026824951172 0 1 0.0002384185791015625
242.932 -3.7105653921710413 -2.0582691631712855 -1.886815071105957 -0.5791891378215333 2.116410732269287 -2.2022135893451136 0.0 0.0 0.0 0.0 0.0 0.0 0.0 0.0 0.0 0.0 0.0 0.0 -4.1785382951031256e-17 3.8723827031460236 1.7819180795741656 0.3883425955309945 0.19062923210739255 0.0 -4.2251538325389154e-16 39.264960128763 18.21033465883246 3.0979144573794684 1.5183490559918988 0.0 -3.710552994404928 -2.0582453213133753 -1.8868284225463867 -0.5791538518718262 2.116410732269287 -2.2022374312030237 0.0 0.0 -0.0 -0.0 -0.0 0.0 -0.24712806940078735 3.410820960998535 1.8232979774475098 0.10138314962387085 0.10801525413990021 -0.02861064486205578 -4.1785382951031256e-17 3.8723827031460236 1.7819180795741656 0.3883425955309945 0.19062923210739255 0.0 -0.5276569796240603 0.31776301068705204 0.034298545192212426 2.7167757910896717 0.15306884602816126 -0.6470970068361481 0.0 0.0 0.0 0.0 0.0 0.0 -0.11826761087965396 -0.4241700332959837 -0.12875443515392576 0.0062073495266885765 -0.006224110802664564 -0.006004502573656586 -0.5276495644051131 0.3177672986909083 0.034284342533911605 2.716763839377261 0.15300122387374004 -0.6470387065951348 0.0 0.0 0.0 0.0 0.0 0.0 131072 26.5625 27.0625 27.125 30.5625 32.6875 33.6875 0.619225 7 253 253 253 253 253 253 1 3.9456443786621094 -2.470816135406494 -8.33182144165039 0.0 1.0 0.0 47.71375274658203 47.75942611694336 0.5718072056770325 47.64226531982422 47.570594787597656 47.65659713745117 47.4559326171875 47.570594787597656 47.44160079956055 0 1 0.000362396240234375
242.94 -3.7105653921710413 -2.0582691631712855 -1.886815071105957 -0.5791891378215333 2.116410732269287 -2.2022135893451136 0.0 0.0 0.0 0.0 0.0 0.0 0.0 0.0 0.0 0.0 0.0 0.0 -1.9579131573740758e-16 3.8723907121411307 1.7820186747600195 0.38835719455302947 0.1906271210962461 0.0 -1.979755526077638e-15 39.26504133790415 18.21136269262395 3.0980309177470566 1.5183322419296168 0.0 -3.7105892340289515 -2.0582572422423304 -1.886815071105957 -0.5791891378215333 2.1163992881774902 -2.2022374312030237 0.0 0.0 -0.0 -0.0 -0.0 0.0 -0.21712811291217804 3.4210779666900635 1.8019895553588867 0.09924788028001785 0.09775857627391815 -0.028923001140356064 -1.9579131573740758e-16 3.8723907121411307 1.7820186747600195 0.38835719455302947 0.1906271210962461 0.0 -0.5276420355737326 0.3177832177544747 0.03429000033696347 2.7167865476568807 0.15300555241617722 -0.6470597483433718 0.0 0.0 0.0 0.0 0.0 0.0 -0.161582768167451 -0.1367094501492529 -0.23570131394567279 -0.0036594928231938185 -0.006942886535127421 -0.002202913175738283 -0.5276495644051131 0.3177672986909083 0.034284342533911605 2.716763839377261 0.15300122387374004 -0.6470387065951348 0.0 0.0 0.0 0.0 0.0 0.0 131072 26.5625 27.0625 27.125 30.5625 32.6875 33.6875 0.617112 7 253 253 253 253 253 253 1 4.060565948486328 -2.5091233253479004 -8.427590370178223 0.0 1.0 0.0 47.737037658691406 47.756744384765625 0.5180941224098206 47.670928955078125 47.64226531982422 47.68526077270508 47.5275993347168 47.570594787597656 47.48460006713867 0 1 0.0002384185791015625
242.94799999999998 -3.7105653921710413 -2.0582691631712855 -1.886815071105957 -0.5791891378215333 2.116410732269287 -2.2022135893451136 0.0 0.0 0.0 0.0 0.0 0.0 0.0 0.0 0.0 0.0 0.0 0.0 1.4545668974282494e-16 3.8723292629956134 1.7820040300652167 0.38835997601115746 0.19063054672781163 0.0 1.4707939636584163e-15 39.2644182594448 18.211213030977664 3.0980531061946968 1.5183595268554186 0.0 -3.7105777899371546 -2.0582810841002406 -1.886815071105957 -0.5792015355876465 2.1163992881774902 -2.2022135893451136 0.0 0.0 -0.0 -0.0 -0.0 0.0 -0.2995623052120209 3.441101551055908 1.8218597173690796 0.09334717690944672 0.10178911685943604 -0.0339200459420681 1.4545668974282494e-16 3.8723292629956134 1.7820040300652167 0.38835997601115746 0.19063054672781163 0.0 -0.5276407870170132 0.31777405298096784 0.03427353516047693 2.716771426951409 0.15297381607727992 -0.6470061455223043 0.0 0.0 0.0 0.0 0.0 0.0 -0.3122088110287111 -0.26340399065457804 -0.11295107885233957 0.003885813033902103 -0.009828434514206869 0.0007455252602304682 -0.5276495644051131 0.3177672986909083 0.034284342533911605 2.716763839377261 0.15300122387374004 -0.6470387065951348 0.0 0.0 0.0 0.0 0.0 0.0 131072 26.5625 27.0625 27.125 30.5625 32.6875 33.6875 0.632593 7 253 253 253 253 253 253 1 3.9839515686035156 -2.451662540435791 -8.33182144165039 0.0 1.0 0.0 47.74061965942383 47.795249938964844 0.5539045929908752 47.670928955078125 47.64226531982422 47.68526077270508 47.54193115234375 47.65659713745117 47.51326370239258 0 1 0.00011920928955078125
242.956 -3.7105653921710413 -2.0582691631712855 -1.886815071105957 -0.5791891378215333 2.116410732269287 -2.2022135893451136 0.0 0.0 0.0 0.0 0.0 0.0 0.0 0.0 0.0 0.0 0.0 0.0 6.256597462645571e-17 3.872286531810066 1.7820079575150214 0.3883640707497105 0.1906225930359501 0.0 6.326395710894824e-16 39.26398497626352 18.211253167601292 3.098085771037309 1.5182961762328722 0.0 -3.710529152547018 -2.0582810841002406 -1.886815071105957 -0.5791776937297364 2.1164345741271973 -2.2022135893451136 0.0 0.0 -0.0 -0.0 -0.0 0.0 -0.26053184270858765 3.41911244392395 1.8290297985076904 0.10725340247154236 0.10430553555488586 -0.02573998086154461 6.256597462645571e-17 3.872286531810066 1.7820079575150214 0.3883640707497105 0.1906225930359501 0.0 -0.5276645064091392 0.3177434818921943 0.03428215560879286 2.7167312631997462 0.15305180183741174 -0.6470420790900133 0.0 0.0 0.0 0.0 0.0 0.0 -0.019289441976956173 -0.19789811097361043 -0.1546080094052641 -0.0019417817430626824 -0.0020734852016568587 0.0014494546670086332 -0.5276495644051131 0.3177672986909083 0.034284342533911605 2.716763839377261 0.15300122387374004 -0.6470387065951348 0.0 0.0 0.0 0.0 0.0 0.0 131072 26.5625 27.0625 27.125 30.5625 32.6875 33.6875 0.618696 7 253 253 253 253 253 253 1 4.079719543457031 -2.5282769203186035 -8.370128631591797 0.0 1.0 0.0 47.75315856933594 47.80957794189453 0.5919508934020996 47.65659713745117 47.61359786987305 47.68526077270508 47.5275993347168 47.6279296875 47.47026824951172 0 1 0.0002384185791015625
242.964 -3.7105653921710413 -2.0582691631712855 -1.886815071105957 -0.5791891378215333 2.116410732269287 -2.2022135893451136 0.0 0.0 0.0 0.0 0.0 0.0 0.0 0.0 0.0 0.0 0.0 0.0 -4.874510956232653e-17 3.872363945846391 1.7819457928969122 0.3883546817002567 0.19062748451298325 0.0 -4.928890725404021e-16 39.264769934590916 18.21061787548956 3.098010872037357 1.5183351365195688 0.0 -3.7105777899371546 -2.0582691631712855 -1.8868398666381836 -0.5792139333537598 2.1163992881774902 -2.2022135893451136 0.0 0.0 -0.0 -0.0 -0.0 0.0 -0.2726631462574005 3.4137187004089355 1.797629475593567 0.10455985367298126 0.10969768464565277 -0.026306040585041046 -4.874510956232653e-17 3.872363945846391 1.7819457928969122 0.3883546817002567 0.19062748451298325 0.0 -0.5276292433792026 0.31776665300774387 0.0342687610669343 2.71676440036069 0.15296372916648318 -0.6469757317638763 0.0 0.0 0.0 0.0 0.0 0.0 -0.21015665994040447 -0.3469473293726321 -0.06242914013327716 0.004062950141534704 -0.008069051500264384 -0.00010707089711586696 -0.5276495644051131 0.3177672986909083 0.034284342533911605 2.716763839377261 0.15300122387374004 -0.6470387065951348 0.0 0.0 0.0 0.0 0.0 0.0 131072 26.5625 27.0625 27.125 30.5625 32.6875 33.6875 0.616224 7 253 253 253 253 253 253 1 3.9647979736328125 -2.5474305152893066 -8.370129585266113 0.0 1.0 0.0 47.77375411987305 47.79972839355469 0.5561404824256897 47.68526077270508 47.6279296875 47.71392822265625 47.5562629699707 47.670928955078125 47.498931884765625 0 1 0.0001239776611328125
242.97199999999998 -3.7105653921710413 -2.0582691631712855 -1.886815071105957 -0.5791891378215333 2.116410732269287 -2.2022135893451136 0.0 0.0 0.0 0.0 0.0 0.0 0.0 0.0 0.0 0.0 0.0 0.0 -3.046873256916246e-17 3.8723313995656237 1.7819135006649807 0.388339539619484 0.1906261402710086 0.0 -3.080864003043028e-16 39.2644399237127 18.21028786461134 3.0978900795425846 1.5183244297223442 0.0 -3.7105053106891077 -2.0582691631712855 -1.8868036270141602 -0.5791891378215333 2.1164345741271973 -2.2022011915790003 0.0 0.0 -0.0 -0.0 -0.0 0.0 -0.2764493525028229 3.439793586730957 1.8003523349761963 0.10542592406272888 0.1030844897031784 -0.03695783391594887 -3.046873256916246e-17 3.8723313995656237 1.7819135006649807 0.388339539619484 0.1906261402710086 0.0 -0.5276761002016782 0.31773344932681263 0.03429261236354608 2.716727490201698 0.15307186956260072 -0.6470461315590487 0.0 0.0 0.0 0.0 0.0 0.0 -0.1634388700589558 -0.21114549423782764 -0.15516311876119088 0.0017197531341082328 -0.005259235730265238 7.158122451467804e-05 -0.5276495644051131 0.3177672986909083 0.034284342533911605 2.716763839377261 0.15300122387374004 -0.6470387065951348 0.0 0.0 0.0 0.0 0.0 0.0 131072 26.5625 27.0625 27.125 30.5625 32.6875 33.6875 0.657661 7 253 253 253 253 253 253 1 4.079719543457031 -2.5665841102600098 -8.33182144165039 0.0 1.0 0.0 47.70838165283203 47.7585334777832 0.5404736995697021 47.65659713745117 47.599266052246094 47.65659713745117 47.498931884765625 47.570594787597656 47.39860534667969 0 1 0.0001239776611328125
242.98 -3.7105653921710413 -2.0582691631712855 -1.886815071105957 -0.5791891378215333 2.116410732269287 -2.2022135893451136 0.0 0.0 0.0 0.0 0.0 0.0 0.0 0.0 0.0 0.0 0.0 0.0 4.180204688365306e-17 3.8724544717938865 1.7818966404763263 0.38833948409411456 0.19062968191162014 0.0 4.226838815990298e-16 39.26568784430995 18.210115561697236 3.097889636601618 1.5183526386524215 0.0 -3.710541550313131 -2.0582691631712855 -1.8868036270141602 -0.5792253774455567 2.1163992881774902 -2.2022135893451136 0.0 0.0 -0.0 -0.0 -0.0 0.0 -0.31120938062667847 3.408010959625244 1.8364418745040894 0.10047924518585205 0.11003851890563965 -0.04612808674573898 4.180204688365306e-17 3.8724544717938865 1.7818966404763263 0.38833948409411456 0.19062968191162014 0.0 -0.527654014255714 0.31775598970638286 0.03428220542116178 2.7167622899420687 0.15302263780831257 -0.6469952856560496 0.0 0.0 0.0 0.0 0.0 0.0 -0.045696706617374405 -0.11020735274698981 -0.13891221795182462 -0.0028249350967587956 -0.0074347995326354 0.0005623445641413194 -0.5276495644051131 0.3177672986909083 0.034284342533911605 2.716763839377261 0.15300122387374004 -0.6470387065951348 0.0 0.0 0.0 0.0 0.0 0.0 131072 26.5625 27.0625 27.125 30.5625 32.6875 33.6875 0.626568 7 253 253 253 253 253 253 1 4.041412353515625 -2.585737705230713 -8.255207061767578 0.0 1.0 0.0 47.73972702026367 47.76659393310547 0.491242915391922 47.65659713745117 47.6279296875 47.68526077270508 47.5275993347168 47.61359786987305 47.47026824951172 0 1 0.000476837158203125
242.988 -3.7105653921710413 -2.0582691631712855 -1.886815071105957 -0.5791891378215333 2.116410732269287 -2.2022135893451136 0.0 0.0 0.0 0.0 0.0 0.0 0.0 0.0 0.0 0.0 0.0 0.0 1.7018927396574882e-16 3.8723103516067674 1.7819852662943538 0.38835841748063743 0.19061958271445462 0.0 1.7208789590275907e-15 39.26422650284791 18.211021274380773 3.098040673373044 1.51827219922394 0.0 -3.710552994404928 -2.0582810841002406 -1.886815071105957 -0.5791891378215333 2.116386890411377 -2.2022135893451136 0.0 0.0 -0.0 -0.0 -0.0 0.0 -0.2504510283470154 3.4505562782287598 1.821058988571167 0.1076648086309433 0.10299661755561829 -0.033345140516757965 1.7018927396574882e-16 3.8723103516067674 1.7819852662943538 0.38835841748063743 0.19061958271445462 0.0 -0.5276496278204863 0.3177651904511732 0.034273499932036655 2.7167810256381157 0.1530111672150211 -0.6470066185174577 0.0 0.0 0.0 0.0 0.0 0.0 -0.07670381553975827 -0.18685038313128333 -0.10289089049909046 -0.0019416273581901937 -0.005902880109310408 0.0003461127151677943 -0.5276495644051131 0.3177672986909083 0.034284342533911605 2.716763839377261 0.15300122387374004 -0.6470387065951348 0.0 0.0 0.0 0.0 0.0 0.0 131072 26.5625 27.0625 27.125 30.5625 32.6875 33.6875 0.619285 7 253 253 253 253 253 253 1 3.869029998779297 -2.5474305152893066 -8.312667846679688 0.0 1.0 0.0 47.754947662353516 47.814056396484375 0.5203352570533752 47.6995964050293 47.65659713745117 47.68526077270508 47.5275993347168 47.64226531982422 47.498931884765625 0 1 0.0002384185791015625
242.99599999999998 -3.7105653921710413 -2.0582691631712855 -1.886815071105957 -0.5791891378215333 2.116410732269287 -2.2022135893451136 0.0 0.0 0.0 0.0 0.0 0.0 0.0 0.0 0.0 0.0 0.0 0.0 2.1473870368744422e-16 3.872282375369947 1.78195750843365 0.38834908368307436 0.19062093240883074 0.0 2.171343165486177e-15 39.26394283103458 18.21073760256745 3.097966215132445 1.5182829494491767 0.0 -3.7106016317950647 -2.0583049259581507 -1.8867921829223633 -0.5791652959636231 2.1163744926452637 -2.2021897474872034 0.0 0.0 -0.0 -0.0 -0.0 0.0 -0.311967134475708 3.4238805770874023 1.81610107421875 0.10402330756187439 0.10298888385295868 -0.028828110545873642 2.1473870368744422e-16 3.872282375369947 1.78195750843365 0.38834908368307436 0.19062093240883074 0.0 -0.5276444001680406 0.31780102399091836 0.03426996779288327 2.7168094264510807 0.15292098085839276 -0.6470338052678584 0.0 0.0 0.0 0.0 0.0 0.0 -0.060753876843841176 -0.29530722113442054 -0.1737300656908545 2.810432509432444e-05 -0.008183296071282032 -0.0059975689240319265 -0.5276495644051131 0.3177672986909083 0.034284342533911605 2.716763839377261 0.15300122387374004 -0.6470387065951348 0.0 0.0 0.0 0.0 0.0 0.0 131072 26.5625 27.0625 27.125 30.5625 32.6875 33.6875 0.61812 7 253 253 253 253 253 253 1 4.060565948486328 -2.585737705230713 -8.121131896972656 0.0 1.0 0.0 47.745994567871094 47.780921936035156 0.4979557394981384 47.65659713745117 47.61359786987305 47.68526077270508 47.5275993347168 47.570594787597656 47.47026824951172 0 1 0.00011920928955078125
243.004 -3.7105653921710413 -2.0582691631712855 -1.886815071105957 -0.5791891378215333 2.116410732269287 -2.2022135893451136 0.0 0.0 0.0 0.0 0.0 0.0 0.0 0.0 0.0 0.0 0.0 0.0 -4.0349023326101515e-17 3.872284469758754 1.781959586474136 0.3883517458164173 0.19062437553295267 0.0 -4.0799154753533847e-16 39.26396406759598 18.210758839128836 3.097987451693836 1.518310373702018 0.0 -3.7105653921710413 -2.0582930050291957 -1.8867921829223633 -0.5791776937297364 2.1163506507873535 -2.2022011915790003 0.0 0.0 -0.0 -0.0 -0.0 0.0 -0.2815859615802765 3.4617836475372314 1.814281702041626 0.10761169344186783 0.11169853806495667 -0.025068793445825577 -4.0349023326101515e-17 3.872284469758754 1.781959586474136 0.3883517458164173 0.19062437553295267 0.0 -0.5276523125312873 0.3177864823868769 0.03427201774787342 2.716824939537277 0.15298343949088447 -0.647011957553968 0.0 0.0 0.0 0.0 0.0 0.0 0.01011255804734193 -0.35304183965461444 -0.26019251269070404 0.002842482215657612 -0.004668835435256981 -0.0038959700224318887 -0.5276495644051131 0.3177672986909083 0.034284342533911605 2.716763839377261 0.15300122387374004 -0.6470387065951348 0.0 0.0 0.0 0.0 0.0 0.0 131072 26.5625 27.0625 27.125 30.5625 32.6875 33.6875 0.708252 7 253 253 253 253 253 253 1 3.9456443786621094 -2.585737705230713 -8.293514251708984 0.0 1.0 0.0 47.743309020996094 47.795249938964844 0.5404736995697021 47.670928955078125 47.65659713745117 47.68526077270508 47.584930419921875 47.61359786987305 47.48460006713867 0 1 0.0002384185791015625
243.012 -3.7105653921710413 -2.0582691631712855 -1.886815071105957 -0.5791891378215333 2.116410732269287 -2.2022135893451136 0.0 0.0 0.0 0.0 0.0 0.0 0.0 0.0 0.0 0.0 0.0 0.0 -5.5972485917507925e-18 3.872413703404318 1.781856190315497 0.3883363725975451 0.19063013168654705 0.0 -5.659691181201738e-17 39.265274463372776 18.20970218076006 3.0978648153476076 1.5183562210795662 0.0 -3.7105653921710413 -2.0583049259581507 -1.8868036270141602 -0.5791652959636231 2.1164231300354004 -2.2022135893451136 0.0 0.0 -0.0 -0.0 -0.0 0.0 -0.323403000831604 3.4101061820983887 1.838461995124817 0.1110072135925293 0.10205430537462234 -0.019061192870140076 -5.5972485917507925e-18 3.872413703404318 1.781856190315497 0.3883363725975451 0.19063013168654705 0.0 -0.527656335718125 0.31776808338199775 0.03427234801206336 2.716751530343244 0.1530018809732574 -0.6470455481790315 0.0 0.0 0.0 0.0 0.0 0.0 -0.2336088117351556 -0.2649165552930611 -0.14141732777774277 0.002177204593930036 -0.00932136759997219 -0.0016688574205792762 -0.5276495644051131 0.3177672986909083 0.034284342533911605 2.716763839377261 0.15300122387374004 -0.6470387065951348 0.0 0.0 0.0 0.0 0.0 0.0 131072 26.5625 27.0625 27.125 30.5625 32.6875 33.6875 0.61938 7 253 253 253 253 253 253 1 3.9647979736328125 -2.5091233253479004 -8.427590370178223 0.0 1.0 0.0 47.7164421081543 47.7639045715332 0.4979557394981384 47.599266052246094 47.599266052246094 47.68526077270508 47.4559326171875 47.570594787597656 47.427268981933594 0 1 0.000476837158203125
243.01999999999998 -3.7105653921710413 -2.0582691631712855 -1.886815071105957 -0.5791891378215333 2.116410732269287 -2.2022135893451136 0.0 0.0 0.0 0.0 0.0 0.0 0.0 0.0 0.0 0.0 0.0 0.0 -2.450008120653069e-17 3.872338203686938 1.782059226053022 0.388362313291634 0.19063374206461572 0.0 -2.4773402729992934e-16 39.26450891574489 18.211777107082664 3.098071751316459 1.518384977498882 0.0 -3.710529152547018 -2.0582930050291957 -1.8867807388305664 -0.5792253774455567 2.116386890411377 -2.2022135893451136 0.0 0.0 -0.0 -0.0 -0.0 0.0 -0.2874731421470642 3.441340446472168 1.7889716625213623 0.09772931784391403 0.10244018584489822 -0.0314439982175827 -2.450008120653069e-17 3.872338203686938 1.782059226053022 0.388362313291634 0.19063374206461572 0.0 -0.5276637465588554 0.3177567526883202 0.034275237768581435 2.7167712055341022 0.15303791604450162 -0.646983234778086 0.0 0.0 0.0 0.0 0.0 0.0 0.05202195214080632 -0.04154295313822244 -0.14185321529241862 -0.003946093798223511 -0.004401495833973744 -0.0038291043518863662 -0.5276495644051131 0.3177672986909083 0.034284342533911605 2.716763839377261 0.15300122387374004 -0.6470387065951348 0.0 0.0 0.0 0.0 0.0 0.0 131072 26.5625 27.0625 27.125 30.5625 32.6875 33.6875 0.616356 7 253 253 253 253 253 253 1 3.9839515686035156 -2.4899697303771973 -8.370128631591797 0.0 1.0 0.0 47.725399017333984 47.782711029052734 0.5360020399093628 47.64226531982422 47.61359786987305 47.65659713745117 47.5275993347168 47.6279296875 47.4559326171875 0 1 0.0002384185791015625
243.028 -3.7105653921710413 -2.0582691631712855 -1.886815071105957 -0.5791891378215333 2.116410732269287 -2.2022135893451136 0.0 0.0 0.0 0.0 0.0 0.0 0.0 0.0 0.0 0.0 0.0 0.0 -1.169781828500106e-16 3.872297227400908 1.7820185696185233 0.3883551866115075 0.19062004994619502 0.0 -1.182831848571014e-15 39.26409342679131 18.211361618129082 3.098014899851667 1.5182759206934342 0.0 -3.7105777899371546 -2.0582930050291957 -1.8868036270141602 -0.5791652959636231 2.1163992881774902 -2.2022374312030237 0.0 0.0 -0.0 -0.0 -0.0 0.0 -0.3204847276210785 3.377655029296875 1.8598591089248657 0.10372810810804367 0.12027335166931152 -0.03464093804359436 -1.169781828500106e-16 3.872297227400908 1.7820185696185233 0.3883551866115075 0.19062004994619502 0.0 -0.5276510985429032 0.3177806950461915 0.03427618415316536 2.716783659786501 0.1530206240983477 -0.6470559405175329 0.0 0.0 0.0 0.0 0.0 0.0 -0.09574552100225167 -0.23030023085525625 -0.18906065290207955 -0.0005021737839439066 -0.002759890472824771 -0.0026979651765351646 -0.5276495644051131 0.3177672986909083 0.034284342533911605 2.716763839377261 0.15300122387374004 -0.6470387065951348 0.0 0.0 0.0 0.0 0.0 0.0 131072 26.5625 27.0625 27.125 30.5625 32.6875 33.6875 0.621769 7 253 253 253 253 253 253 1 3.9456443786621094 -2.470816135406494 -8.274360656738281 0.0 1.0 0.0 47.742408752441406 47.796146392822266 0.5561404824256897 47.6279296875 47.64226531982422 47.68526077270508 47.51326370239258 47.64226531982422 47.48460006713867 0 1 0.0002384185791015625
243.036 -3.7105653921710413 -2.0582691631712855 -1.886815071105957 -0.5791891378215333 2.116410732269287 -2.2022135893451136 0.0 0.0 0.0 0.0 0.0 0.0 0.0 0.0 0.0 0.0 0.0 0.0 9.16152228885784e-17 3.8723214104197763 1.7819035894921238 0.3883493230179278 0.19062089780457664 0.0 9.263727714550733e-16 39.26433863635463 18.210186577253268 3.0979681243716355 1.5182826738286126 0.0 -3.710552994404928 -2.0582572422423304 -1.8867807388305664 -0.5791891378215333 2.116410732269287 -2.2022255102740687 0.0 0.0 -0.0 -0.0 -0.0 0.0 -0.32200905680656433 3.4423062801361084 1.7655670642852783 0.1024223193526268 0.09970155358314514 -0.03351450338959694 9.16152228885784e-17 3.8723214104197763 1.7819035894921238 0.3883493230179278 0.19062089780457664 0.0 -0.5276693675986581 0.3177708906146049 0.034305981690685994 2.716774693405084 0.15305287877165555 -0.6470942208611753 0.0 0.0 0.0 0.0 0.0 0.0 -0.024174542263292076 -0.3097055826070626 -0.22592124001467978 0.0017692973290486921 -0.0035982399699137505 -0.0036518925598748903 -0.5276495644051131 0.3177672986909083 0.034284342533911605 2.716763839377261 0.15300122387374004 -0.6470387065951348 0.0 0.0 0.0 0.0 0.0 0.0 131072 26.5625 27.0625 27.125 30.5625 32.625 33.625 0.62136 7 253 253 253 253 253 253 1 4.022258758544922 -2.451662540435791 -8.370129585266113 0.0 1.0 0.0 47.723602294921875 47.777339935302734 0.4979557394981384 47.670928955078125 47.64226531982422 47.68526077270508 47.51326370239258 47.6279296875 47.4559326171875 0 1 0.00016530354817708334
243.04399999999998 -3.7105653921710413 -2.0582691631712855 -1.886815071105957 -0.5791891378215333 2.116410732269287 -2.2022135893451136 0.0 0.0 0.0 0.0 0.0 0.0 0.0 0.0 0.0 0.0 0.0 0.0 5.446453900268472e-17 3.8723847976031873 1.7819201576824746 0.3883452577512243 0.1906326752270736 0.0 5.507214232650205e-16 39.26498136601751 18.210355896086966 3.0979356946339793 1.5183764802093687 0.0 -3.7105777899371546 -2.0582572422423304 -1.8868036270141602 -0.5791652959636231 2.1163992881774902 -2.2022255102740687 0.0 0.0 -0.0 -0.0 -0.0 0.0 -0.2543662488460541 3.4044904708862305 1.8187175989151 0.1068253219127655 0.10408707708120346 -0.029116209596395493 5.446453900268472e-17 3.8723847976031873 1.7819201576824746 0.3883452577512243 0.1906326752270736 0.0 -0.5276549662287082 0.31778314970099614 0.03429820262013941 2.716792446639371 0.15301876119955118 -0.6470955654861399 0.0 0.0 0.0 0.0 0.0 0.0 0.006757934127803084 -0.13898064624977796 -0.010686898434464354 0.0017663415614537225 -0.004743715551043348 -0.0016870171614999563 -0.5276495644051131 0.3177672986909083 0.034284342533911605 2.716763839377261 0.15300122387374004 -0.6470387065951348 0.0 0.0 0.0 0.0 0.0 0.0 131072 26.5625 27.0625 27.125 30.5625 32.625 33.625 0.620089 7 253 253 253 253 253 253 1 4.003105163574219 -2.470816135406494 -8.370129585266113 0.0 1.0 0.0 47.751365661621094 47.78718948364258 0.5785199999809265 47.68526077270508 47.65659713745117 47.71392822265625 47.5562629699707 47.64226531982422 47.48460006713867 0 1 0.0002384185791015625
